MODULE MainModule
	PROC main()


		        ; Part number: 1
		        ; PartParams(solidityRatio=1.09, printSpeed=2000, shiftX=10.0, shiftY=10.0, numLayers=8)

		        ; Layer: 1
		        ; LayerParams(infillShiftX=0.0, infillShiftY=0.0, infillAngle=0.0, numShells=13, layerHeight=0.4, pathWidth=0.5, trimAdjust=0.0002)
		        ; T11
		        ; M6
		TPWRITE "Layer 1 of 8";
		MoveL Offs(pZero, 10.0,10.0, 50), v999, z0, tNozzle, \Wobj := wobjPlatform;
		MoveL Offs(pZero, 10.0,10.0,0.4), v999, z0, tNozzle, \Wobj := wobjPlatform;
		MoveL Offs(pZero, 10.0,19.5, 0.4), v2000, z0, tNozzle, \Wobj := wobjPlatform;
		MoveL Offs(pZero, 10.0,29.0, 0.4), v2000, z0, tNozzle, \Wobj := wobjPlatform;
		MoveL Offs(pZero, 42.858,29.0, 0.4), v2000, z0, tNozzle, \Wobj := wobjPlatform;
		MoveL Offs(pZero, 43.943,28.694, 0.4), v2000, z0, tNozzle, \Wobj := wobjPlatform;
		MoveL Offs(pZero, 45.033,28.405, 0.4), v2000, z0, tNozzle, \Wobj := wobjPlatform;
		MoveL Offs(pZero, 46.127,28.132, 0.4), v2000, z0, tNozzle, \Wobj := wobjPlatform;
		MoveL Offs(pZero, 47.225,27.875, 0.4), v2000, z0, tNozzle, \Wobj := wobjPlatform;
		MoveL Offs(pZero, 48.327,27.634, 0.4), v2000, z0, tNozzle, \Wobj := wobjPlatform;
		MoveL Offs(pZero, 49.432,27.409, 0.4), v2000, z0, tNozzle, \Wobj := wobjPlatform;
		MoveL Offs(pZero, 50.54,27.202, 0.4), v2000, z0, tNozzle, \Wobj := wobjPlatform;
		MoveL Offs(pZero, 51.651,27.01, 0.4), v2000, z0, tNozzle, \Wobj := wobjPlatform;
		MoveL Offs(pZero, 52.765,26.835, 0.4), v2000, z0, tNozzle, \Wobj := wobjPlatform;
		MoveL Offs(pZero, 53.882,26.677, 0.4), v2000, z0, tNozzle, \Wobj := wobjPlatform;
		MoveL Offs(pZero, 55.0,26.535, 0.4), v2000, z0, tNozzle, \Wobj := wobjPlatform;
		MoveL Offs(pZero, 56.121,26.41, 0.4), v2000, z0, tNozzle, \Wobj := wobjPlatform;
		MoveL Offs(pZero, 57.243,26.301, 0.4), v2000, z0, tNozzle, \Wobj := wobjPlatform;
		MoveL Offs(pZero, 58.367,26.209, 0.4), v2000, z0, tNozzle, \Wobj := wobjPlatform;
		MoveL Offs(pZero, 59.492,26.134, 0.4), v2000, z0, tNozzle, \Wobj := wobjPlatform;
		MoveL Offs(pZero, 60.618,26.075, 0.4), v2000, z0, tNozzle, \Wobj := wobjPlatform;
		MoveL Offs(pZero, 61.745,26.034, 0.4), v2000, z0, tNozzle, \Wobj := wobjPlatform;
		MoveL Offs(pZero, 62.872,26.008, 0.4), v2000, z0, tNozzle, \Wobj := wobjPlatform;
		MoveL Offs(pZero, 64.0,26.0, 0.4), v2000, z0, tNozzle, \Wobj := wobjPlatform;
		MoveL Offs(pZero, 92.5,26.0, 0.4), v2000, z0, tNozzle, \Wobj := wobjPlatform;
		MoveL Offs(pZero, 121.0,26.0, 0.4), v2000, z0, tNozzle, \Wobj := wobjPlatform;
		MoveL Offs(pZero, 122.128,26.008, 0.4), v2000, z0, tNozzle, \Wobj := wobjPlatform;
		MoveL Offs(pZero, 123.255,26.034, 0.4), v2000, z0, tNozzle, \Wobj := wobjPlatform;
		MoveL Offs(pZero, 124.382,26.075, 0.4), v2000, z0, tNozzle, \Wobj := wobjPlatform;
		MoveL Offs(pZero, 125.508,26.134, 0.4), v2000, z0, tNozzle, \Wobj := wobjPlatform;
		MoveL Offs(pZero, 126.633,26.209, 0.4), v2000, z0, tNozzle, \Wobj := wobjPlatform;
		MoveL Offs(pZero, 127.757,26.301, 0.4), v2000, z0, tNozzle, \Wobj := wobjPlatform;
		MoveL Offs(pZero, 128.879,26.41, 0.4), v2000, z0, tNozzle, \Wobj := wobjPlatform;
		MoveL Offs(pZero, 130.0,26.535, 0.4), v2000, z0, tNozzle, \Wobj := wobjPlatform;
		MoveL Offs(pZero, 131.118,26.677, 0.4), v2000, z0, tNozzle, \Wobj := wobjPlatform;
		MoveL Offs(pZero, 132.235,26.835, 0.4), v2000, z0, tNozzle, \Wobj := wobjPlatform;
		MoveL Offs(pZero, 133.349,27.01, 0.4), v2000, z0, tNozzle, \Wobj := wobjPlatform;
		MoveL Offs(pZero, 134.46,27.202, 0.4), v2000, z0, tNozzle, \Wobj := wobjPlatform;
		MoveL Offs(pZero, 135.568,27.409, 0.4), v2000, z0, tNozzle, \Wobj := wobjPlatform;
		MoveL Offs(pZero, 136.673,27.634, 0.4), v2000, z0, tNozzle, \Wobj := wobjPlatform;
		MoveL Offs(pZero, 137.775,27.875, 0.4), v2000, z0, tNozzle, \Wobj := wobjPlatform;
		MoveL Offs(pZero, 138.873,28.132, 0.4), v2000, z0, tNozzle, \Wobj := wobjPlatform;
		MoveL Offs(pZero, 139.967,28.405, 0.4), v2000, z0, tNozzle, \Wobj := wobjPlatform;
		MoveL Offs(pZero, 141.057,28.694, 0.4), v2000, z0, tNozzle, \Wobj := wobjPlatform;
		MoveL Offs(pZero, 142.142,29.0, 0.4), v2000, z0, tNozzle, \Wobj := wobjPlatform;
		MoveL Offs(pZero, 175.0,29.0, 0.4), v2000, z0, tNozzle, \Wobj := wobjPlatform;
		MoveL Offs(pZero, 175.0,19.5, 0.4), v2000, z0, tNozzle, \Wobj := wobjPlatform;
		MoveL Offs(pZero, 175.0,10.0, 0.4), v2000, z0, tNozzle, \Wobj := wobjPlatform;
		MoveL Offs(pZero, 142.142,10.0, 0.4), v2000, z0, tNozzle, \Wobj := wobjPlatform;
		MoveL Offs(pZero, 141.057,10.306, 0.4), v2000, z0, tNozzle, \Wobj := wobjPlatform;
		MoveL Offs(pZero, 139.967,10.595, 0.4), v2000, z0, tNozzle, \Wobj := wobjPlatform;
		MoveL Offs(pZero, 138.873,10.868, 0.4), v2000, z0, tNozzle, \Wobj := wobjPlatform;
		MoveL Offs(pZero, 137.775,11.125, 0.4), v2000, z0, tNozzle, \Wobj := wobjPlatform;
		MoveL Offs(pZero, 136.673,11.366, 0.4), v2000, z0, tNozzle, \Wobj := wobjPlatform;
		MoveL Offs(pZero, 135.568,11.591, 0.4), v2000, z0, tNozzle, \Wobj := wobjPlatform;
		MoveL Offs(pZero, 134.46,11.798, 0.4), v2000, z0, tNozzle, \Wobj := wobjPlatform;
		MoveL Offs(pZero, 133.349,11.99, 0.4), v2000, z0, tNozzle, \Wobj := wobjPlatform;
		MoveL Offs(pZero, 132.235,12.165, 0.4), v2000, z0, tNozzle, \Wobj := wobjPlatform;
		MoveL Offs(pZero, 131.118,12.323, 0.4), v2000, z0, tNozzle, \Wobj := wobjPlatform;
		MoveL Offs(pZero, 130.0,12.465, 0.4), v2000, z0, tNozzle, \Wobj := wobjPlatform;
		MoveL Offs(pZero, 128.879,12.59, 0.4), v2000, z0, tNozzle, \Wobj := wobjPlatform;
		MoveL Offs(pZero, 127.757,12.699, 0.4), v2000, z0, tNozzle, \Wobj := wobjPlatform;
		MoveL Offs(pZero, 126.633,12.791, 0.4), v2000, z0, tNozzle, \Wobj := wobjPlatform;
		MoveL Offs(pZero, 125.508,12.866, 0.4), v2000, z0, tNozzle, \Wobj := wobjPlatform;
		MoveL Offs(pZero, 124.382,12.925, 0.4), v2000, z0, tNozzle, \Wobj := wobjPlatform;
		MoveL Offs(pZero, 123.255,12.966, 0.4), v2000, z0, tNozzle, \Wobj := wobjPlatform;
		MoveL Offs(pZero, 122.128,12.992, 0.4), v2000, z0, tNozzle, \Wobj := wobjPlatform;
		MoveL Offs(pZero, 121.0,13.0, 0.4), v2000, z0, tNozzle, \Wobj := wobjPlatform;
		MoveL Offs(pZero, 92.5,13.0, 0.4), v2000, z0, tNozzle, \Wobj := wobjPlatform;
		MoveL Offs(pZero, 64.0,13.0, 0.4), v2000, z0, tNozzle, \Wobj := wobjPlatform;
		MoveL Offs(pZero, 62.872,12.992, 0.4), v2000, z0, tNozzle, \Wobj := wobjPlatform;
		MoveL Offs(pZero, 61.745,12.966, 0.4), v2000, z0, tNozzle, \Wobj := wobjPlatform;
		MoveL Offs(pZero, 60.618,12.925, 0.4), v2000, z0, tNozzle, \Wobj := wobjPlatform;
		MoveL Offs(pZero, 59.492,12.866, 0.4), v2000, z0, tNozzle, \Wobj := wobjPlatform;
		MoveL Offs(pZero, 58.367,12.791, 0.4), v2000, z0, tNozzle, \Wobj := wobjPlatform;
		MoveL Offs(pZero, 57.243,12.699, 0.4), v2000, z0, tNozzle, \Wobj := wobjPlatform;
		MoveL Offs(pZero, 56.121,12.59, 0.4), v2000, z0, tNozzle, \Wobj := wobjPlatform;
		MoveL Offs(pZero, 55.0,12.465, 0.4), v2000, z0, tNozzle, \Wobj := wobjPlatform;
		MoveL Offs(pZero, 53.882,12.323, 0.4), v2000, z0, tNozzle, \Wobj := wobjPlatform;
		MoveL Offs(pZero, 52.765,12.165, 0.4), v2000, z0, tNozzle, \Wobj := wobjPlatform;
		MoveL Offs(pZero, 51.651,11.99, 0.4), v2000, z0, tNozzle, \Wobj := wobjPlatform;
		MoveL Offs(pZero, 50.54,11.798, 0.4), v2000, z0, tNozzle, \Wobj := wobjPlatform;
		MoveL Offs(pZero, 49.432,11.591, 0.4), v2000, z0, tNozzle, \Wobj := wobjPlatform;
		MoveL Offs(pZero, 48.327,11.366, 0.4), v2000, z0, tNozzle, \Wobj := wobjPlatform;
		MoveL Offs(pZero, 47.225,11.125, 0.4), v2000, z0, tNozzle, \Wobj := wobjPlatform;
		MoveL Offs(pZero, 46.127,10.868, 0.4), v2000, z0, tNozzle, \Wobj := wobjPlatform;
		MoveL Offs(pZero, 45.033,10.595, 0.4), v2000, z0, tNozzle, \Wobj := wobjPlatform;
		MoveL Offs(pZero, 43.943,10.306, 0.4), v2000, z0, tNozzle, \Wobj := wobjPlatform;
		MoveL Offs(pZero, 42.858,10.0, 0.4), v2000, z0, tNozzle, \Wobj := wobjPlatform;
		MoveL Offs(pZero, 10.0,10.0, 0.4), v2000, z0, tNozzle, \Wobj := wobjPlatform;
		MoveL Offs(pZero, 10.5,10.5, 0.4), v999, z0, tNozzle, \Wobj := wobjPlatform;
		MoveL Offs(pZero, 10.5,19.5, 0.4), v2000, z0, tNozzle, \Wobj := wobjPlatform;
		MoveL Offs(pZero, 10.5,28.5, 0.4), v2000, z0, tNozzle, \Wobj := wobjPlatform;
		MoveL Offs(pZero, 42.789,28.5, 0.4), v2000, z0, tNozzle, \Wobj := wobjPlatform;
		MoveL Offs(pZero, 43.811,28.212, 0.4), v2000, z0, tNozzle, \Wobj := wobjPlatform;
		MoveL Offs(pZero, 44.908,27.921, 0.4), v2000, z0, tNozzle, \Wobj := wobjPlatform;
		MoveL Offs(pZero, 46.01,27.646, 0.4), v2000, z0, tNozzle, \Wobj := wobjPlatform;
		MoveL Offs(pZero, 47.115,27.387, 0.4), v2000, z0, tNozzle, \Wobj := wobjPlatform;
		MoveL Offs(pZero, 48.224,27.145, 0.4), v2000, z0, tNozzle, \Wobj := wobjPlatform;
		MoveL Offs(pZero, 49.336,26.919, 0.4), v2000, z0, tNozzle, \Wobj := wobjPlatform;
		MoveL Offs(pZero, 50.451,26.709, 0.4), v2000, z0, tNozzle, \Wobj := wobjPlatform;
		MoveL Offs(pZero, 51.57,26.517, 0.4), v2000, z0, tNozzle, \Wobj := wobjPlatform;
		MoveL Offs(pZero, 52.691,26.341, 0.4), v2000, z0, tNozzle, \Wobj := wobjPlatform;
		MoveL Offs(pZero, 53.815,26.181, 0.4), v2000, z0, tNozzle, \Wobj := wobjPlatform;
		MoveL Offs(pZero, 54.941,26.038, 0.4), v2000, z0, tNozzle, \Wobj := wobjPlatform;
		MoveL Offs(pZero, 56.069,25.912, 0.4), v2000, z0, tNozzle, \Wobj := wobjPlatform;
		MoveL Offs(pZero, 57.199,25.803, 0.4), v2000, z0, tNozzle, \Wobj := wobjPlatform;
		MoveL Offs(pZero, 58.33,25.711, 0.4), v2000, z0, tNozzle, \Wobj := wobjPlatform;
		MoveL Offs(pZero, 59.463,25.635, 0.4), v2000, z0, tNozzle, \Wobj := wobjPlatform;
		MoveL Offs(pZero, 60.596,25.576, 0.4), v2000, z0, tNozzle, \Wobj := wobjPlatform;
		MoveL Offs(pZero, 61.73,25.534, 0.4), v2000, z0, tNozzle, \Wobj := wobjPlatform;
		MoveL Offs(pZero, 62.865,25.509, 0.4), v2000, z0, tNozzle, \Wobj := wobjPlatform;
		MoveL Offs(pZero, 63.998,25.5, 0.4), v2000, z0, tNozzle, \Wobj := wobjPlatform;
		MoveL Offs(pZero, 92.5,25.5, 0.4), v2000, z0, tNozzle, \Wobj := wobjPlatform;
		MoveL Offs(pZero, 121.002,25.5, 0.4), v2000, z0, tNozzle, \Wobj := wobjPlatform;
		MoveL Offs(pZero, 122.135,25.509, 0.4), v2000, z0, tNozzle, \Wobj := wobjPlatform;
		MoveL Offs(pZero, 123.27,25.534, 0.4), v2000, z0, tNozzle, \Wobj := wobjPlatform;
		MoveL Offs(pZero, 124.404,25.576, 0.4), v2000, z0, tNozzle, \Wobj := wobjPlatform;
		MoveL Offs(pZero, 125.537,25.635, 0.4), v2000, z0, tNozzle, \Wobj := wobjPlatform;
		MoveL Offs(pZero, 126.67,25.711, 0.4), v2000, z0, tNozzle, \Wobj := wobjPlatform;
		MoveL Offs(pZero, 127.801,25.803, 0.4), v2000, z0, tNozzle, \Wobj := wobjPlatform;
		MoveL Offs(pZero, 128.931,25.912, 0.4), v2000, z0, tNozzle, \Wobj := wobjPlatform;
		MoveL Offs(pZero, 130.059,26.038, 0.4), v2000, z0, tNozzle, \Wobj := wobjPlatform;
		MoveL Offs(pZero, 131.185,26.181, 0.4), v2000, z0, tNozzle, \Wobj := wobjPlatform;
		MoveL Offs(pZero, 132.309,26.341, 0.4), v2000, z0, tNozzle, \Wobj := wobjPlatform;
		MoveL Offs(pZero, 133.43,26.517, 0.4), v2000, z0, tNozzle, \Wobj := wobjPlatform;
		MoveL Offs(pZero, 134.549,26.709, 0.4), v2000, z0, tNozzle, \Wobj := wobjPlatform;
		MoveL Offs(pZero, 135.664,26.919, 0.4), v2000, z0, tNozzle, \Wobj := wobjPlatform;
		MoveL Offs(pZero, 136.776,27.145, 0.4), v2000, z0, tNozzle, \Wobj := wobjPlatform;
		MoveL Offs(pZero, 137.885,27.387, 0.4), v2000, z0, tNozzle, \Wobj := wobjPlatform;
		MoveL Offs(pZero, 138.99,27.646, 0.4), v2000, z0, tNozzle, \Wobj := wobjPlatform;
		MoveL Offs(pZero, 140.092,27.921, 0.4), v2000, z0, tNozzle, \Wobj := wobjPlatform;
		MoveL Offs(pZero, 141.189,28.212, 0.4), v2000, z0, tNozzle, \Wobj := wobjPlatform;
		MoveL Offs(pZero, 142.211,28.5, 0.4), v2000, z0, tNozzle, \Wobj := wobjPlatform;
		MoveL Offs(pZero, 174.5,28.5, 0.4), v2000, z0, tNozzle, \Wobj := wobjPlatform;
		MoveL Offs(pZero, 174.5,19.5, 0.4), v2000, z0, tNozzle, \Wobj := wobjPlatform;
		MoveL Offs(pZero, 174.5,10.5, 0.4), v2000, z0, tNozzle, \Wobj := wobjPlatform;
		MoveL Offs(pZero, 142.211,10.5, 0.4), v2000, z0, tNozzle, \Wobj := wobjPlatform;
		MoveL Offs(pZero, 141.189,10.788, 0.4), v2000, z0, tNozzle, \Wobj := wobjPlatform;
		MoveL Offs(pZero, 140.092,11.079, 0.4), v2000, z0, tNozzle, \Wobj := wobjPlatform;
		MoveL Offs(pZero, 138.99,11.354, 0.4), v2000, z0, tNozzle, \Wobj := wobjPlatform;
		MoveL Offs(pZero, 137.885,11.613, 0.4), v2000, z0, tNozzle, \Wobj := wobjPlatform;
		MoveL Offs(pZero, 136.776,11.855, 0.4), v2000, z0, tNozzle, \Wobj := wobjPlatform;
		MoveL Offs(pZero, 135.664,12.081, 0.4), v2000, z0, tNozzle, \Wobj := wobjPlatform;
		MoveL Offs(pZero, 134.549,12.291, 0.4), v2000, z0, tNozzle, \Wobj := wobjPlatform;
		MoveL Offs(pZero, 133.43,12.483, 0.4), v2000, z0, tNozzle, \Wobj := wobjPlatform;
		MoveL Offs(pZero, 132.309,12.659, 0.4), v2000, z0, tNozzle, \Wobj := wobjPlatform;
		MoveL Offs(pZero, 131.185,12.819, 0.4), v2000, z0, tNozzle, \Wobj := wobjPlatform;
		MoveL Offs(pZero, 130.059,12.962, 0.4), v2000, z0, tNozzle, \Wobj := wobjPlatform;
		MoveL Offs(pZero, 128.931,13.088, 0.4), v2000, z0, tNozzle, \Wobj := wobjPlatform;
		MoveL Offs(pZero, 127.801,13.197, 0.4), v2000, z0, tNozzle, \Wobj := wobjPlatform;
		MoveL Offs(pZero, 126.67,13.289, 0.4), v2000, z0, tNozzle, \Wobj := wobjPlatform;
		MoveL Offs(pZero, 125.537,13.365, 0.4), v2000, z0, tNozzle, \Wobj := wobjPlatform;
		MoveL Offs(pZero, 124.404,13.424, 0.4), v2000, z0, tNozzle, \Wobj := wobjPlatform;
		MoveL Offs(pZero, 123.27,13.466, 0.4), v2000, z0, tNozzle, \Wobj := wobjPlatform;
		MoveL Offs(pZero, 122.135,13.491, 0.4), v2000, z0, tNozzle, \Wobj := wobjPlatform;
		MoveL Offs(pZero, 121.002,13.5, 0.4), v2000, z0, tNozzle, \Wobj := wobjPlatform;
		MoveL Offs(pZero, 92.5,13.5, 0.4), v2000, z0, tNozzle, \Wobj := wobjPlatform;
		MoveL Offs(pZero, 63.998,13.5, 0.4), v2000, z0, tNozzle, \Wobj := wobjPlatform;
		MoveL Offs(pZero, 62.865,13.491, 0.4), v2000, z0, tNozzle, \Wobj := wobjPlatform;
		MoveL Offs(pZero, 61.73,13.466, 0.4), v2000, z0, tNozzle, \Wobj := wobjPlatform;
		MoveL Offs(pZero, 60.596,13.424, 0.4), v2000, z0, tNozzle, \Wobj := wobjPlatform;
		MoveL Offs(pZero, 59.463,13.365, 0.4), v2000, z0, tNozzle, \Wobj := wobjPlatform;
		MoveL Offs(pZero, 58.33,13.289, 0.4), v2000, z0, tNozzle, \Wobj := wobjPlatform;
		MoveL Offs(pZero, 57.199,13.197, 0.4), v2000, z0, tNozzle, \Wobj := wobjPlatform;
		MoveL Offs(pZero, 56.069,13.088, 0.4), v2000, z0, tNozzle, \Wobj := wobjPlatform;
		MoveL Offs(pZero, 54.941,12.962, 0.4), v2000, z0, tNozzle, \Wobj := wobjPlatform;
		MoveL Offs(pZero, 53.815,12.819, 0.4), v2000, z0, tNozzle, \Wobj := wobjPlatform;
		MoveL Offs(pZero, 52.691,12.659, 0.4), v2000, z0, tNozzle, \Wobj := wobjPlatform;
		MoveL Offs(pZero, 51.57,12.483, 0.4), v2000, z0, tNozzle, \Wobj := wobjPlatform;
		MoveL Offs(pZero, 50.451,12.291, 0.4), v2000, z0, tNozzle, \Wobj := wobjPlatform;
		MoveL Offs(pZero, 49.336,12.081, 0.4), v2000, z0, tNozzle, \Wobj := wobjPlatform;
		MoveL Offs(pZero, 48.224,11.855, 0.4), v2000, z0, tNozzle, \Wobj := wobjPlatform;
		MoveL Offs(pZero, 47.115,11.613, 0.4), v2000, z0, tNozzle, \Wobj := wobjPlatform;
		MoveL Offs(pZero, 46.01,11.354, 0.4), v2000, z0, tNozzle, \Wobj := wobjPlatform;
		MoveL Offs(pZero, 44.908,11.079, 0.4), v2000, z0, tNozzle, \Wobj := wobjPlatform;
		MoveL Offs(pZero, 43.811,10.788, 0.4), v2000, z0, tNozzle, \Wobj := wobjPlatform;
		MoveL Offs(pZero, 42.789,10.5, 0.4), v2000, z0, tNozzle, \Wobj := wobjPlatform;
		MoveL Offs(pZero, 10.5,10.5, 0.4), v2000, z0, tNozzle, \Wobj := wobjPlatform;
		MoveL Offs(pZero, 11.0,11.0, 0.4), v999, z0, tNozzle, \Wobj := wobjPlatform;
		MoveL Offs(pZero, 11.0,19.5, 0.4), v2000, z0, tNozzle, \Wobj := wobjPlatform;
		MoveL Offs(pZero, 11.0,28.0, 0.4), v2000, z0, tNozzle, \Wobj := wobjPlatform;
		MoveL Offs(pZero, 42.72,28.0, 0.4), v2000, z0, tNozzle, \Wobj := wobjPlatform;
		MoveL Offs(pZero, 43.679,27.73, 0.4), v2000, z0, tNozzle, \Wobj := wobjPlatform;
		MoveL Offs(pZero, 44.784,27.436, 0.4), v2000, z0, tNozzle, \Wobj := wobjPlatform;
		MoveL Offs(pZero, 45.892,27.16, 0.4), v2000, z0, tNozzle, \Wobj := wobjPlatform;
		MoveL Offs(pZero, 47.004,26.899, 0.4), v2000, z0, tNozzle, \Wobj := wobjPlatform;
		MoveL Offs(pZero, 48.12,26.655, 0.4), v2000, z0, tNozzle, \Wobj := wobjPlatform;
		MoveL Offs(pZero, 49.24,26.428, 0.4), v2000, z0, tNozzle, \Wobj := wobjPlatform;
		MoveL Offs(pZero, 50.363,26.217, 0.4), v2000, z0, tNozzle, \Wobj := wobjPlatform;
		MoveL Offs(pZero, 51.489,26.023, 0.4), v2000, z0, tNozzle, \Wobj := wobjPlatform;
		MoveL Offs(pZero, 52.617,25.846, 0.4), v2000, z0, tNozzle, \Wobj := wobjPlatform;
		MoveL Offs(pZero, 53.748,25.686, 0.4), v2000, z0, tNozzle, \Wobj := wobjPlatform;
		MoveL Offs(pZero, 54.882,25.542, 0.4), v2000, z0, tNozzle, \Wobj := wobjPlatform;
		MoveL Offs(pZero, 56.017,25.415, 0.4), v2000, z0, tNozzle, \Wobj := wobjPlatform;
		MoveL Offs(pZero, 57.154,25.305, 0.4), v2000, z0, tNozzle, \Wobj := wobjPlatform;
		MoveL Offs(pZero, 58.293,25.212, 0.4), v2000, z0, tNozzle, \Wobj := wobjPlatform;
		MoveL Offs(pZero, 59.433,25.136, 0.4), v2000, z0, tNozzle, \Wobj := wobjPlatform;
		MoveL Offs(pZero, 60.574,25.076, 0.4), v2000, z0, tNozzle, \Wobj := wobjPlatform;
		MoveL Offs(pZero, 61.715,25.034, 0.4), v2000, z0, tNozzle, \Wobj := wobjPlatform;
		MoveL Offs(pZero, 62.858,25.009, 0.4), v2000, z0, tNozzle, \Wobj := wobjPlatform;
		MoveL Offs(pZero, 63.996,25.0, 0.4), v2000, z0, tNozzle, \Wobj := wobjPlatform;
		MoveL Offs(pZero, 92.5,25.0, 0.4), v2000, z0, tNozzle, \Wobj := wobjPlatform;
		MoveL Offs(pZero, 121.004,25.0, 0.4), v2000, z0, tNozzle, \Wobj := wobjPlatform;
		MoveL Offs(pZero, 122.142,25.009, 0.4), v2000, z0, tNozzle, \Wobj := wobjPlatform;
		MoveL Offs(pZero, 123.285,25.034, 0.4), v2000, z0, tNozzle, \Wobj := wobjPlatform;
		MoveL Offs(pZero, 124.426,25.076, 0.4), v2000, z0, tNozzle, \Wobj := wobjPlatform;
		MoveL Offs(pZero, 125.567,25.136, 0.4), v2000, z0, tNozzle, \Wobj := wobjPlatform;
		MoveL Offs(pZero, 126.707,25.212, 0.4), v2000, z0, tNozzle, \Wobj := wobjPlatform;
		MoveL Offs(pZero, 127.846,25.305, 0.4), v2000, z0, tNozzle, \Wobj := wobjPlatform;
		MoveL Offs(pZero, 128.983,25.415, 0.4), v2000, z0, tNozzle, \Wobj := wobjPlatform;
		MoveL Offs(pZero, 130.118,25.542, 0.4), v2000, z0, tNozzle, \Wobj := wobjPlatform;
		MoveL Offs(pZero, 131.252,25.686, 0.4), v2000, z0, tNozzle, \Wobj := wobjPlatform;
		MoveL Offs(pZero, 132.383,25.846, 0.4), v2000, z0, tNozzle, \Wobj := wobjPlatform;
		MoveL Offs(pZero, 133.511,26.023, 0.4), v2000, z0, tNozzle, \Wobj := wobjPlatform;
		MoveL Offs(pZero, 134.637,26.217, 0.4), v2000, z0, tNozzle, \Wobj := wobjPlatform;
		MoveL Offs(pZero, 135.76,26.428, 0.4), v2000, z0, tNozzle, \Wobj := wobjPlatform;
		MoveL Offs(pZero, 136.88,26.655, 0.4), v2000, z0, tNozzle, \Wobj := wobjPlatform;
		MoveL Offs(pZero, 137.996,26.899, 0.4), v2000, z0, tNozzle, \Wobj := wobjPlatform;
		MoveL Offs(pZero, 139.108,27.16, 0.4), v2000, z0, tNozzle, \Wobj := wobjPlatform;
		MoveL Offs(pZero, 140.216,27.436, 0.4), v2000, z0, tNozzle, \Wobj := wobjPlatform;
		MoveL Offs(pZero, 141.321,27.73, 0.4), v2000, z0, tNozzle, \Wobj := wobjPlatform;
		MoveL Offs(pZero, 142.28,28.0, 0.4), v2000, z0, tNozzle, \Wobj := wobjPlatform;
		MoveL Offs(pZero, 174.0,28.0, 0.4), v2000, z0, tNozzle, \Wobj := wobjPlatform;
		MoveL Offs(pZero, 174.0,19.5, 0.4), v2000, z0, tNozzle, \Wobj := wobjPlatform;
		MoveL Offs(pZero, 174.0,11.0, 0.4), v2000, z0, tNozzle, \Wobj := wobjPlatform;
		MoveL Offs(pZero, 142.28,11.0, 0.4), v2000, z0, tNozzle, \Wobj := wobjPlatform;
		MoveL Offs(pZero, 141.321,11.27, 0.4), v2000, z0, tNozzle, \Wobj := wobjPlatform;
		MoveL Offs(pZero, 140.216,11.564, 0.4), v2000, z0, tNozzle, \Wobj := wobjPlatform;
		MoveL Offs(pZero, 139.108,11.84, 0.4), v2000, z0, tNozzle, \Wobj := wobjPlatform;
		MoveL Offs(pZero, 137.996,12.101, 0.4), v2000, z0, tNozzle, \Wobj := wobjPlatform;
		MoveL Offs(pZero, 136.88,12.345, 0.4), v2000, z0, tNozzle, \Wobj := wobjPlatform;
		MoveL Offs(pZero, 135.76,12.572, 0.4), v2000, z0, tNozzle, \Wobj := wobjPlatform;
		MoveL Offs(pZero, 134.637,12.783, 0.4), v2000, z0, tNozzle, \Wobj := wobjPlatform;
		MoveL Offs(pZero, 133.511,12.977, 0.4), v2000, z0, tNozzle, \Wobj := wobjPlatform;
		MoveL Offs(pZero, 132.383,13.154, 0.4), v2000, z0, tNozzle, \Wobj := wobjPlatform;
		MoveL Offs(pZero, 131.252,13.314, 0.4), v2000, z0, tNozzle, \Wobj := wobjPlatform;
		MoveL Offs(pZero, 130.118,13.458, 0.4), v2000, z0, tNozzle, \Wobj := wobjPlatform;
		MoveL Offs(pZero, 128.983,13.585, 0.4), v2000, z0, tNozzle, \Wobj := wobjPlatform;
		MoveL Offs(pZero, 127.846,13.695, 0.4), v2000, z0, tNozzle, \Wobj := wobjPlatform;
		MoveL Offs(pZero, 126.707,13.788, 0.4), v2000, z0, tNozzle, \Wobj := wobjPlatform;
		MoveL Offs(pZero, 125.567,13.864, 0.4), v2000, z0, tNozzle, \Wobj := wobjPlatform;
		MoveL Offs(pZero, 124.426,13.924, 0.4), v2000, z0, tNozzle, \Wobj := wobjPlatform;
		MoveL Offs(pZero, 123.285,13.966, 0.4), v2000, z0, tNozzle, \Wobj := wobjPlatform;
		MoveL Offs(pZero, 122.142,13.991, 0.4), v2000, z0, tNozzle, \Wobj := wobjPlatform;
		MoveL Offs(pZero, 121.004,14.0, 0.4), v2000, z0, tNozzle, \Wobj := wobjPlatform;
		MoveL Offs(pZero, 92.5,14.0, 0.4), v2000, z0, tNozzle, \Wobj := wobjPlatform;
		MoveL Offs(pZero, 63.996,14.0, 0.4), v2000, z0, tNozzle, \Wobj := wobjPlatform;
		MoveL Offs(pZero, 62.858,13.991, 0.4), v2000, z0, tNozzle, \Wobj := wobjPlatform;
		MoveL Offs(pZero, 61.715,13.966, 0.4), v2000, z0, tNozzle, \Wobj := wobjPlatform;
		MoveL Offs(pZero, 60.574,13.924, 0.4), v2000, z0, tNozzle, \Wobj := wobjPlatform;
		MoveL Offs(pZero, 59.433,13.864, 0.4), v2000, z0, tNozzle, \Wobj := wobjPlatform;
		MoveL Offs(pZero, 58.293,13.788, 0.4), v2000, z0, tNozzle, \Wobj := wobjPlatform;
		MoveL Offs(pZero, 57.154,13.695, 0.4), v2000, z0, tNozzle, \Wobj := wobjPlatform;
		MoveL Offs(pZero, 56.017,13.585, 0.4), v2000, z0, tNozzle, \Wobj := wobjPlatform;
		MoveL Offs(pZero, 54.882,13.458, 0.4), v2000, z0, tNozzle, \Wobj := wobjPlatform;
		MoveL Offs(pZero, 53.748,13.314, 0.4), v2000, z0, tNozzle, \Wobj := wobjPlatform;
		MoveL Offs(pZero, 52.617,13.154, 0.4), v2000, z0, tNozzle, \Wobj := wobjPlatform;
		MoveL Offs(pZero, 51.489,12.977, 0.4), v2000, z0, tNozzle, \Wobj := wobjPlatform;
		MoveL Offs(pZero, 50.363,12.783, 0.4), v2000, z0, tNozzle, \Wobj := wobjPlatform;
		MoveL Offs(pZero, 49.24,12.572, 0.4), v2000, z0, tNozzle, \Wobj := wobjPlatform;
		MoveL Offs(pZero, 48.12,12.345, 0.4), v2000, z0, tNozzle, \Wobj := wobjPlatform;
		MoveL Offs(pZero, 47.004,12.101, 0.4), v2000, z0, tNozzle, \Wobj := wobjPlatform;
		MoveL Offs(pZero, 45.892,11.84, 0.4), v2000, z0, tNozzle, \Wobj := wobjPlatform;
		MoveL Offs(pZero, 44.784,11.564, 0.4), v2000, z0, tNozzle, \Wobj := wobjPlatform;
		MoveL Offs(pZero, 43.679,11.27, 0.4), v2000, z0, tNozzle, \Wobj := wobjPlatform;
		MoveL Offs(pZero, 42.72,11.0, 0.4), v2000, z0, tNozzle, \Wobj := wobjPlatform;
		MoveL Offs(pZero, 11.0,11.0, 0.4), v2000, z0, tNozzle, \Wobj := wobjPlatform;
		MoveL Offs(pZero, 11.5,11.5, 0.4), v999, z0, tNozzle, \Wobj := wobjPlatform;
		MoveL Offs(pZero, 11.5,19.5, 0.4), v2000, z0, tNozzle, \Wobj := wobjPlatform;
		MoveL Offs(pZero, 11.5,27.5, 0.4), v2000, z0, tNozzle, \Wobj := wobjPlatform;
		MoveL Offs(pZero, 42.651,27.5, 0.4), v2000, z0, tNozzle, \Wobj := wobjPlatform;
		MoveL Offs(pZero, 43.548,27.247, 0.4), v2000, z0, tNozzle, \Wobj := wobjPlatform;
		MoveL Offs(pZero, 44.659,26.952, 0.4), v2000, z0, tNozzle, \Wobj := wobjPlatform;
		MoveL Offs(pZero, 45.774,26.674, 0.4), v2000, z0, tNozzle, \Wobj := wobjPlatform;
		MoveL Offs(pZero, 46.894,26.411, 0.4), v2000, z0, tNozzle, \Wobj := wobjPlatform;
		MoveL Offs(pZero, 48.017,26.166, 0.4), v2000, z0, tNozzle, \Wobj := wobjPlatform;
		MoveL Offs(pZero, 49.144,25.937, 0.4), v2000, z0, tNozzle, \Wobj := wobjPlatform;
		MoveL Offs(pZero, 50.274,25.725, 0.4), v2000, z0, tNozzle, \Wobj := wobjPlatform;
		MoveL Offs(pZero, 51.408,25.53, 0.4), v2000, z0, tNozzle, \Wobj := wobjPlatform;
		MoveL Offs(pZero, 52.543,25.352, 0.4), v2000, z0, tNozzle, \Wobj := wobjPlatform;
		MoveL Offs(pZero, 53.682,25.19, 0.4), v2000, z0, tNozzle, \Wobj := wobjPlatform;
		MoveL Offs(pZero, 54.823,25.045, 0.4), v2000, z0, tNozzle, \Wobj := wobjPlatform;
		MoveL Offs(pZero, 55.965,24.918, 0.4), v2000, z0, tNozzle, \Wobj := wobjPlatform;
		MoveL Offs(pZero, 57.11,24.807, 0.4), v2000, z0, tNozzle, \Wobj := wobjPlatform;
		MoveL Offs(pZero, 58.256,24.713, 0.4), v2000, z0, tNozzle, \Wobj := wobjPlatform;
		MoveL Offs(pZero, 59.403,24.637, 0.4), v2000, z0, tNozzle, \Wobj := wobjPlatform;
		MoveL Offs(pZero, 60.552,24.577, 0.4), v2000, z0, tNozzle, \Wobj := wobjPlatform;
		MoveL Offs(pZero, 61.701,24.534, 0.4), v2000, z0, tNozzle, \Wobj := wobjPlatform;
		MoveL Offs(pZero, 62.85,24.509, 0.4), v2000, z0, tNozzle, \Wobj := wobjPlatform;
		MoveL Offs(pZero, 63.994,24.5, 0.4), v2000, z0, tNozzle, \Wobj := wobjPlatform;
		MoveL Offs(pZero, 92.5,24.5, 0.4), v2000, z0, tNozzle, \Wobj := wobjPlatform;
		MoveL Offs(pZero, 121.006,24.5, 0.4), v2000, z0, tNozzle, \Wobj := wobjPlatform;
		MoveL Offs(pZero, 122.15,24.509, 0.4), v2000, z0, tNozzle, \Wobj := wobjPlatform;
		MoveL Offs(pZero, 123.299,24.534, 0.4), v2000, z0, tNozzle, \Wobj := wobjPlatform;
		MoveL Offs(pZero, 124.448,24.577, 0.4), v2000, z0, tNozzle, \Wobj := wobjPlatform;
		MoveL Offs(pZero, 125.597,24.637, 0.4), v2000, z0, tNozzle, \Wobj := wobjPlatform;
		MoveL Offs(pZero, 126.744,24.713, 0.4), v2000, z0, tNozzle, \Wobj := wobjPlatform;
		MoveL Offs(pZero, 127.89,24.807, 0.4), v2000, z0, tNozzle, \Wobj := wobjPlatform;
		MoveL Offs(pZero, 129.035,24.918, 0.4), v2000, z0, tNozzle, \Wobj := wobjPlatform;
		MoveL Offs(pZero, 130.177,25.045, 0.4), v2000, z0, tNozzle, \Wobj := wobjPlatform;
		MoveL Offs(pZero, 131.318,25.19, 0.4), v2000, z0, tNozzle, \Wobj := wobjPlatform;
		MoveL Offs(pZero, 132.457,25.352, 0.4), v2000, z0, tNozzle, \Wobj := wobjPlatform;
		MoveL Offs(pZero, 133.592,25.53, 0.4), v2000, z0, tNozzle, \Wobj := wobjPlatform;
		MoveL Offs(pZero, 134.726,25.725, 0.4), v2000, z0, tNozzle, \Wobj := wobjPlatform;
		MoveL Offs(pZero, 135.856,25.937, 0.4), v2000, z0, tNozzle, \Wobj := wobjPlatform;
		MoveL Offs(pZero, 136.983,26.166, 0.4), v2000, z0, tNozzle, \Wobj := wobjPlatform;
		MoveL Offs(pZero, 138.106,26.411, 0.4), v2000, z0, tNozzle, \Wobj := wobjPlatform;
		MoveL Offs(pZero, 139.226,26.674, 0.4), v2000, z0, tNozzle, \Wobj := wobjPlatform;
		MoveL Offs(pZero, 140.341,26.952, 0.4), v2000, z0, tNozzle, \Wobj := wobjPlatform;
		MoveL Offs(pZero, 141.452,27.247, 0.4), v2000, z0, tNozzle, \Wobj := wobjPlatform;
		MoveL Offs(pZero, 142.349,27.5, 0.4), v2000, z0, tNozzle, \Wobj := wobjPlatform;
		MoveL Offs(pZero, 173.5,27.5, 0.4), v2000, z0, tNozzle, \Wobj := wobjPlatform;
		MoveL Offs(pZero, 173.5,19.5, 0.4), v2000, z0, tNozzle, \Wobj := wobjPlatform;
		MoveL Offs(pZero, 173.5,11.5, 0.4), v2000, z0, tNozzle, \Wobj := wobjPlatform;
		MoveL Offs(pZero, 142.349,11.5, 0.4), v2000, z0, tNozzle, \Wobj := wobjPlatform;
		MoveL Offs(pZero, 141.452,11.753, 0.4), v2000, z0, tNozzle, \Wobj := wobjPlatform;
		MoveL Offs(pZero, 140.341,12.048, 0.4), v2000, z0, tNozzle, \Wobj := wobjPlatform;
		MoveL Offs(pZero, 139.226,12.326, 0.4), v2000, z0, tNozzle, \Wobj := wobjPlatform;
		MoveL Offs(pZero, 138.106,12.589, 0.4), v2000, z0, tNozzle, \Wobj := wobjPlatform;
		MoveL Offs(pZero, 136.983,12.834, 0.4), v2000, z0, tNozzle, \Wobj := wobjPlatform;
		MoveL Offs(pZero, 135.856,13.063, 0.4), v2000, z0, tNozzle, \Wobj := wobjPlatform;
		MoveL Offs(pZero, 134.726,13.275, 0.4), v2000, z0, tNozzle, \Wobj := wobjPlatform;
		MoveL Offs(pZero, 133.592,13.47, 0.4), v2000, z0, tNozzle, \Wobj := wobjPlatform;
		MoveL Offs(pZero, 132.457,13.648, 0.4), v2000, z0, tNozzle, \Wobj := wobjPlatform;
		MoveL Offs(pZero, 131.318,13.81, 0.4), v2000, z0, tNozzle, \Wobj := wobjPlatform;
		MoveL Offs(pZero, 130.177,13.955, 0.4), v2000, z0, tNozzle, \Wobj := wobjPlatform;
		MoveL Offs(pZero, 129.035,14.082, 0.4), v2000, z0, tNozzle, \Wobj := wobjPlatform;
		MoveL Offs(pZero, 127.89,14.193, 0.4), v2000, z0, tNozzle, \Wobj := wobjPlatform;
		MoveL Offs(pZero, 126.744,14.287, 0.4), v2000, z0, tNozzle, \Wobj := wobjPlatform;
		MoveL Offs(pZero, 125.597,14.363, 0.4), v2000, z0, tNozzle, \Wobj := wobjPlatform;
		MoveL Offs(pZero, 124.448,14.423, 0.4), v2000, z0, tNozzle, \Wobj := wobjPlatform;
		MoveL Offs(pZero, 123.299,14.466, 0.4), v2000, z0, tNozzle, \Wobj := wobjPlatform;
		MoveL Offs(pZero, 122.15,14.491, 0.4), v2000, z0, tNozzle, \Wobj := wobjPlatform;
		MoveL Offs(pZero, 121.006,14.5, 0.4), v2000, z0, tNozzle, \Wobj := wobjPlatform;
		MoveL Offs(pZero, 92.5,14.5, 0.4), v2000, z0, tNozzle, \Wobj := wobjPlatform;
		MoveL Offs(pZero, 63.994,14.5, 0.4), v2000, z0, tNozzle, \Wobj := wobjPlatform;
		MoveL Offs(pZero, 62.85,14.491, 0.4), v2000, z0, tNozzle, \Wobj := wobjPlatform;
		MoveL Offs(pZero, 61.701,14.466, 0.4), v2000, z0, tNozzle, \Wobj := wobjPlatform;
		MoveL Offs(pZero, 60.552,14.423, 0.4), v2000, z0, tNozzle, \Wobj := wobjPlatform;
		MoveL Offs(pZero, 59.403,14.363, 0.4), v2000, z0, tNozzle, \Wobj := wobjPlatform;
		MoveL Offs(pZero, 58.256,14.287, 0.4), v2000, z0, tNozzle, \Wobj := wobjPlatform;
		MoveL Offs(pZero, 57.11,14.193, 0.4), v2000, z0, tNozzle, \Wobj := wobjPlatform;
		MoveL Offs(pZero, 55.965,14.082, 0.4), v2000, z0, tNozzle, \Wobj := wobjPlatform;
		MoveL Offs(pZero, 54.823,13.955, 0.4), v2000, z0, tNozzle, \Wobj := wobjPlatform;
		MoveL Offs(pZero, 53.682,13.81, 0.4), v2000, z0, tNozzle, \Wobj := wobjPlatform;
		MoveL Offs(pZero, 52.543,13.648, 0.4), v2000, z0, tNozzle, \Wobj := wobjPlatform;
		MoveL Offs(pZero, 51.408,13.47, 0.4), v2000, z0, tNozzle, \Wobj := wobjPlatform;
		MoveL Offs(pZero, 50.274,13.275, 0.4), v2000, z0, tNozzle, \Wobj := wobjPlatform;
		MoveL Offs(pZero, 49.144,13.063, 0.4), v2000, z0, tNozzle, \Wobj := wobjPlatform;
		MoveL Offs(pZero, 48.017,12.834, 0.4), v2000, z0, tNozzle, \Wobj := wobjPlatform;
		MoveL Offs(pZero, 46.894,12.589, 0.4), v2000, z0, tNozzle, \Wobj := wobjPlatform;
		MoveL Offs(pZero, 45.774,12.326, 0.4), v2000, z0, tNozzle, \Wobj := wobjPlatform;
		MoveL Offs(pZero, 44.659,12.048, 0.4), v2000, z0, tNozzle, \Wobj := wobjPlatform;
		MoveL Offs(pZero, 43.548,11.753, 0.4), v2000, z0, tNozzle, \Wobj := wobjPlatform;
		MoveL Offs(pZero, 42.651,11.5, 0.4), v2000, z0, tNozzle, \Wobj := wobjPlatform;
		MoveL Offs(pZero, 11.5,11.5, 0.4), v2000, z0, tNozzle, \Wobj := wobjPlatform;
		MoveL Offs(pZero, 12.0,12.0, 0.4), v999, z0, tNozzle, \Wobj := wobjPlatform;
		MoveL Offs(pZero, 12.0,19.5, 0.4), v2000, z0, tNozzle, \Wobj := wobjPlatform;
		MoveL Offs(pZero, 12.0,27.0, 0.4), v2000, z0, tNozzle, \Wobj := wobjPlatform;
		MoveL Offs(pZero, 42.582,27.0, 0.4), v2000, z0, tNozzle, \Wobj := wobjPlatform;
		MoveL Offs(pZero, 43.416,26.765, 0.4), v2000, z0, tNozzle, \Wobj := wobjPlatform;
		MoveL Offs(pZero, 44.534,26.468, 0.4), v2000, z0, tNozzle, \Wobj := wobjPlatform;
		MoveL Offs(pZero, 45.657,26.188, 0.4), v2000, z0, tNozzle, \Wobj := wobjPlatform;
		MoveL Offs(pZero, 46.784,25.924, 0.4), v2000, z0, tNozzle, \Wobj := wobjPlatform;
		MoveL Offs(pZero, 47.914,25.677, 0.4), v2000, z0, tNozzle, \Wobj := wobjPlatform;
		MoveL Offs(pZero, 49.048,25.446, 0.4), v2000, z0, tNozzle, \Wobj := wobjPlatform;
		MoveL Offs(pZero, 50.186,25.233, 0.4), v2000, z0, tNozzle, \Wobj := wobjPlatform;
		MoveL Offs(pZero, 51.326,25.037, 0.4), v2000, z0, tNozzle, \Wobj := wobjPlatform;
		MoveL Offs(pZero, 52.47,24.857, 0.4), v2000, z0, tNozzle, \Wobj := wobjPlatform;
		MoveL Offs(pZero, 53.615,24.694, 0.4), v2000, z0, tNozzle, \Wobj := wobjPlatform;
		MoveL Offs(pZero, 54.763,24.549, 0.4), v2000, z0, tNozzle, \Wobj := wobjPlatform;
		MoveL Offs(pZero, 55.914,24.42, 0.4), v2000, z0, tNozzle, \Wobj := wobjPlatform;
		MoveL Offs(pZero, 57.065,24.309, 0.4), v2000, z0, tNozzle, \Wobj := wobjPlatform;
		MoveL Offs(pZero, 58.219,24.215, 0.4), v2000, z0, tNozzle, \Wobj := wobjPlatform;
		MoveL Offs(pZero, 59.374,24.137, 0.4), v2000, z0, tNozzle, \Wobj := wobjPlatform;
		MoveL Offs(pZero, 60.529,24.077, 0.4), v2000, z0, tNozzle, \Wobj := wobjPlatform;
		MoveL Offs(pZero, 61.686,24.034, 0.4), v2000, z0, tNozzle, \Wobj := wobjPlatform;
		MoveL Offs(pZero, 62.843,24.009, 0.4), v2000, z0, tNozzle, \Wobj := wobjPlatform;
		MoveL Offs(pZero, 63.992,24.0, 0.4), v2000, z0, tNozzle, \Wobj := wobjPlatform;
		MoveL Offs(pZero, 92.5,24.0, 0.4), v2000, z0, tNozzle, \Wobj := wobjPlatform;
		MoveL Offs(pZero, 121.008,24.0, 0.4), v2000, z0, tNozzle, \Wobj := wobjPlatform;
		MoveL Offs(pZero, 122.157,24.009, 0.4), v2000, z0, tNozzle, \Wobj := wobjPlatform;
		MoveL Offs(pZero, 123.314,24.034, 0.4), v2000, z0, tNozzle, \Wobj := wobjPlatform;
		MoveL Offs(pZero, 124.471,24.077, 0.4), v2000, z0, tNozzle, \Wobj := wobjPlatform;
		MoveL Offs(pZero, 125.626,24.137, 0.4), v2000, z0, tNozzle, \Wobj := wobjPlatform;
		MoveL Offs(pZero, 126.781,24.215, 0.4), v2000, z0, tNozzle, \Wobj := wobjPlatform;
		MoveL Offs(pZero, 127.935,24.309, 0.4), v2000, z0, tNozzle, \Wobj := wobjPlatform;
		MoveL Offs(pZero, 129.086,24.42, 0.4), v2000, z0, tNozzle, \Wobj := wobjPlatform;
		MoveL Offs(pZero, 130.237,24.549, 0.4), v2000, z0, tNozzle, \Wobj := wobjPlatform;
		MoveL Offs(pZero, 131.385,24.694, 0.4), v2000, z0, tNozzle, \Wobj := wobjPlatform;
		MoveL Offs(pZero, 132.53,24.857, 0.4), v2000, z0, tNozzle, \Wobj := wobjPlatform;
		MoveL Offs(pZero, 133.674,25.037, 0.4), v2000, z0, tNozzle, \Wobj := wobjPlatform;
		MoveL Offs(pZero, 134.814,25.233, 0.4), v2000, z0, tNozzle, \Wobj := wobjPlatform;
		MoveL Offs(pZero, 135.952,25.446, 0.4), v2000, z0, tNozzle, \Wobj := wobjPlatform;
		MoveL Offs(pZero, 137.086,25.677, 0.4), v2000, z0, tNozzle, \Wobj := wobjPlatform;
		MoveL Offs(pZero, 138.216,25.924, 0.4), v2000, z0, tNozzle, \Wobj := wobjPlatform;
		MoveL Offs(pZero, 139.343,26.188, 0.4), v2000, z0, tNozzle, \Wobj := wobjPlatform;
		MoveL Offs(pZero, 140.466,26.468, 0.4), v2000, z0, tNozzle, \Wobj := wobjPlatform;
		MoveL Offs(pZero, 141.584,26.765, 0.4), v2000, z0, tNozzle, \Wobj := wobjPlatform;
		MoveL Offs(pZero, 142.418,27.0, 0.4), v2000, z0, tNozzle, \Wobj := wobjPlatform;
		MoveL Offs(pZero, 173.0,27.0, 0.4), v2000, z0, tNozzle, \Wobj := wobjPlatform;
		MoveL Offs(pZero, 173.0,19.5, 0.4), v2000, z0, tNozzle, \Wobj := wobjPlatform;
		MoveL Offs(pZero, 173.0,12.0, 0.4), v2000, z0, tNozzle, \Wobj := wobjPlatform;
		MoveL Offs(pZero, 142.418,12.0, 0.4), v2000, z0, tNozzle, \Wobj := wobjPlatform;
		MoveL Offs(pZero, 141.584,12.235, 0.4), v2000, z0, tNozzle, \Wobj := wobjPlatform;
		MoveL Offs(pZero, 140.466,12.532, 0.4), v2000, z0, tNozzle, \Wobj := wobjPlatform;
		MoveL Offs(pZero, 139.343,12.812, 0.4), v2000, z0, tNozzle, \Wobj := wobjPlatform;
		MoveL Offs(pZero, 138.216,13.076, 0.4), v2000, z0, tNozzle, \Wobj := wobjPlatform;
		MoveL Offs(pZero, 137.086,13.323, 0.4), v2000, z0, tNozzle, \Wobj := wobjPlatform;
		MoveL Offs(pZero, 135.952,13.554, 0.4), v2000, z0, tNozzle, \Wobj := wobjPlatform;
		MoveL Offs(pZero, 134.814,13.767, 0.4), v2000, z0, tNozzle, \Wobj := wobjPlatform;
		MoveL Offs(pZero, 133.674,13.963, 0.4), v2000, z0, tNozzle, \Wobj := wobjPlatform;
		MoveL Offs(pZero, 132.53,14.143, 0.4), v2000, z0, tNozzle, \Wobj := wobjPlatform;
		MoveL Offs(pZero, 131.385,14.306, 0.4), v2000, z0, tNozzle, \Wobj := wobjPlatform;
		MoveL Offs(pZero, 130.237,14.451, 0.4), v2000, z0, tNozzle, \Wobj := wobjPlatform;
		MoveL Offs(pZero, 129.086,14.58, 0.4), v2000, z0, tNozzle, \Wobj := wobjPlatform;
		MoveL Offs(pZero, 127.935,14.691, 0.4), v2000, z0, tNozzle, \Wobj := wobjPlatform;
		MoveL Offs(pZero, 126.781,14.785, 0.4), v2000, z0, tNozzle, \Wobj := wobjPlatform;
		MoveL Offs(pZero, 125.626,14.863, 0.4), v2000, z0, tNozzle, \Wobj := wobjPlatform;
		MoveL Offs(pZero, 124.471,14.923, 0.4), v2000, z0, tNozzle, \Wobj := wobjPlatform;
		MoveL Offs(pZero, 123.314,14.966, 0.4), v2000, z0, tNozzle, \Wobj := wobjPlatform;
		MoveL Offs(pZero, 122.157,14.991, 0.4), v2000, z0, tNozzle, \Wobj := wobjPlatform;
		MoveL Offs(pZero, 121.008,15.0, 0.4), v2000, z0, tNozzle, \Wobj := wobjPlatform;
		MoveL Offs(pZero, 92.5,15.0, 0.4), v2000, z0, tNozzle, \Wobj := wobjPlatform;
		MoveL Offs(pZero, 63.992,15.0, 0.4), v2000, z0, tNozzle, \Wobj := wobjPlatform;
		MoveL Offs(pZero, 62.843,14.991, 0.4), v2000, z0, tNozzle, \Wobj := wobjPlatform;
		MoveL Offs(pZero, 61.686,14.966, 0.4), v2000, z0, tNozzle, \Wobj := wobjPlatform;
		MoveL Offs(pZero, 60.529,14.923, 0.4), v2000, z0, tNozzle, \Wobj := wobjPlatform;
		MoveL Offs(pZero, 59.374,14.863, 0.4), v2000, z0, tNozzle, \Wobj := wobjPlatform;
		MoveL Offs(pZero, 58.219,14.785, 0.4), v2000, z0, tNozzle, \Wobj := wobjPlatform;
		MoveL Offs(pZero, 57.065,14.691, 0.4), v2000, z0, tNozzle, \Wobj := wobjPlatform;
		MoveL Offs(pZero, 55.914,14.58, 0.4), v2000, z0, tNozzle, \Wobj := wobjPlatform;
		MoveL Offs(pZero, 54.763,14.451, 0.4), v2000, z0, tNozzle, \Wobj := wobjPlatform;
		MoveL Offs(pZero, 53.615,14.306, 0.4), v2000, z0, tNozzle, \Wobj := wobjPlatform;
		MoveL Offs(pZero, 52.47,14.143, 0.4), v2000, z0, tNozzle, \Wobj := wobjPlatform;
		MoveL Offs(pZero, 51.326,13.963, 0.4), v2000, z0, tNozzle, \Wobj := wobjPlatform;
		MoveL Offs(pZero, 50.186,13.767, 0.4), v2000, z0, tNozzle, \Wobj := wobjPlatform;
		MoveL Offs(pZero, 49.048,13.554, 0.4), v2000, z0, tNozzle, \Wobj := wobjPlatform;
		MoveL Offs(pZero, 47.914,13.323, 0.4), v2000, z0, tNozzle, \Wobj := wobjPlatform;
		MoveL Offs(pZero, 46.784,13.076, 0.4), v2000, z0, tNozzle, \Wobj := wobjPlatform;
		MoveL Offs(pZero, 45.657,12.812, 0.4), v2000, z0, tNozzle, \Wobj := wobjPlatform;
		MoveL Offs(pZero, 44.534,12.532, 0.4), v2000, z0, tNozzle, \Wobj := wobjPlatform;
		MoveL Offs(pZero, 43.416,12.235, 0.4), v2000, z0, tNozzle, \Wobj := wobjPlatform;
		MoveL Offs(pZero, 42.582,12.0, 0.4), v2000, z0, tNozzle, \Wobj := wobjPlatform;
		MoveL Offs(pZero, 12.0,12.0, 0.4), v2000, z0, tNozzle, \Wobj := wobjPlatform;
		MoveL Offs(pZero, 12.5,12.5, 0.4), v999, z0, tNozzle, \Wobj := wobjPlatform;
		MoveL Offs(pZero, 12.5,19.5, 0.4), v2000, z0, tNozzle, \Wobj := wobjPlatform;
		MoveL Offs(pZero, 12.5,26.5, 0.4), v2000, z0, tNozzle, \Wobj := wobjPlatform;
		MoveL Offs(pZero, 42.513,26.5, 0.4), v2000, z0, tNozzle, \Wobj := wobjPlatform;
		MoveL Offs(pZero, 43.284,26.283, 0.4), v2000, z0, tNozzle, \Wobj := wobjPlatform;
		MoveL Offs(pZero, 44.409,25.984, 0.4), v2000, z0, tNozzle, \Wobj := wobjPlatform;
		MoveL Offs(pZero, 45.539,25.702, 0.4), v2000, z0, tNozzle, \Wobj := wobjPlatform;
		MoveL Offs(pZero, 46.673,25.436, 0.4), v2000, z0, tNozzle, \Wobj := wobjPlatform;
		MoveL Offs(pZero, 47.811,25.187, 0.4), v2000, z0, tNozzle, \Wobj := wobjPlatform;
		MoveL Offs(pZero, 48.953,24.956, 0.4), v2000, z0, tNozzle, \Wobj := wobjPlatform;
		MoveL Offs(pZero, 50.097,24.741, 0.4), v2000, z0, tNozzle, \Wobj := wobjPlatform;
		MoveL Offs(pZero, 51.245,24.543, 0.4), v2000, z0, tNozzle, \Wobj := wobjPlatform;
		MoveL Offs(pZero, 52.396,24.362, 0.4), v2000, z0, tNozzle, \Wobj := wobjPlatform;
		MoveL Offs(pZero, 53.549,24.199, 0.4), v2000, z0, tNozzle, \Wobj := wobjPlatform;
		MoveL Offs(pZero, 54.704,24.052, 0.4), v2000, z0, tNozzle, \Wobj := wobjPlatform;
		MoveL Offs(pZero, 55.862,23.923, 0.4), v2000, z0, tNozzle, \Wobj := wobjPlatform;
		MoveL Offs(pZero, 57.021,23.811, 0.4), v2000, z0, tNozzle, \Wobj := wobjPlatform;
		MoveL Offs(pZero, 58.182,23.716, 0.4), v2000, z0, tNozzle, \Wobj := wobjPlatform;
		MoveL Offs(pZero, 59.344,23.638, 0.4), v2000, z0, tNozzle, \Wobj := wobjPlatform;
		MoveL Offs(pZero, 60.507,23.578, 0.4), v2000, z0, tNozzle, \Wobj := wobjPlatform;
		MoveL Offs(pZero, 61.671,23.535, 0.4), v2000, z0, tNozzle, \Wobj := wobjPlatform;
		MoveL Offs(pZero, 62.835,23.509, 0.4), v2000, z0, tNozzle, \Wobj := wobjPlatform;
		MoveL Offs(pZero, 63.991,23.5, 0.4), v2000, z0, tNozzle, \Wobj := wobjPlatform;
		MoveL Offs(pZero, 92.5,23.5, 0.4), v2000, z0, tNozzle, \Wobj := wobjPlatform;
		MoveL Offs(pZero, 121.009,23.5, 0.4), v2000, z0, tNozzle, \Wobj := wobjPlatform;
		MoveL Offs(pZero, 122.165,23.509, 0.4), v2000, z0, tNozzle, \Wobj := wobjPlatform;
		MoveL Offs(pZero, 123.329,23.535, 0.4), v2000, z0, tNozzle, \Wobj := wobjPlatform;
		MoveL Offs(pZero, 124.493,23.578, 0.4), v2000, z0, tNozzle, \Wobj := wobjPlatform;
		MoveL Offs(pZero, 125.656,23.638, 0.4), v2000, z0, tNozzle, \Wobj := wobjPlatform;
		MoveL Offs(pZero, 126.818,23.716, 0.4), v2000, z0, tNozzle, \Wobj := wobjPlatform;
		MoveL Offs(pZero, 127.979,23.811, 0.4), v2000, z0, tNozzle, \Wobj := wobjPlatform;
		MoveL Offs(pZero, 129.138,23.923, 0.4), v2000, z0, tNozzle, \Wobj := wobjPlatform;
		MoveL Offs(pZero, 130.296,24.052, 0.4), v2000, z0, tNozzle, \Wobj := wobjPlatform;
		MoveL Offs(pZero, 131.451,24.199, 0.4), v2000, z0, tNozzle, \Wobj := wobjPlatform;
		MoveL Offs(pZero, 132.604,24.362, 0.4), v2000, z0, tNozzle, \Wobj := wobjPlatform;
		MoveL Offs(pZero, 133.755,24.543, 0.4), v2000, z0, tNozzle, \Wobj := wobjPlatform;
		MoveL Offs(pZero, 134.903,24.741, 0.4), v2000, z0, tNozzle, \Wobj := wobjPlatform;
		MoveL Offs(pZero, 136.047,24.956, 0.4), v2000, z0, tNozzle, \Wobj := wobjPlatform;
		MoveL Offs(pZero, 137.189,25.187, 0.4), v2000, z0, tNozzle, \Wobj := wobjPlatform;
		MoveL Offs(pZero, 138.327,25.436, 0.4), v2000, z0, tNozzle, \Wobj := wobjPlatform;
		MoveL Offs(pZero, 139.461,25.702, 0.4), v2000, z0, tNozzle, \Wobj := wobjPlatform;
		MoveL Offs(pZero, 140.591,25.984, 0.4), v2000, z0, tNozzle, \Wobj := wobjPlatform;
		MoveL Offs(pZero, 141.716,26.283, 0.4), v2000, z0, tNozzle, \Wobj := wobjPlatform;
		MoveL Offs(pZero, 142.487,26.5, 0.4), v2000, z0, tNozzle, \Wobj := wobjPlatform;
		MoveL Offs(pZero, 172.5,26.5, 0.4), v2000, z0, tNozzle, \Wobj := wobjPlatform;
		MoveL Offs(pZero, 172.5,19.5, 0.4), v2000, z0, tNozzle, \Wobj := wobjPlatform;
		MoveL Offs(pZero, 172.5,12.5, 0.4), v2000, z0, tNozzle, \Wobj := wobjPlatform;
		MoveL Offs(pZero, 142.487,12.5, 0.4), v2000, z0, tNozzle, \Wobj := wobjPlatform;
		MoveL Offs(pZero, 141.716,12.717, 0.4), v2000, z0, tNozzle, \Wobj := wobjPlatform;
		MoveL Offs(pZero, 140.591,13.016, 0.4), v2000, z0, tNozzle, \Wobj := wobjPlatform;
		MoveL Offs(pZero, 139.461,13.298, 0.4), v2000, z0, tNozzle, \Wobj := wobjPlatform;
		MoveL Offs(pZero, 138.327,13.564, 0.4), v2000, z0, tNozzle, \Wobj := wobjPlatform;
		MoveL Offs(pZero, 137.189,13.813, 0.4), v2000, z0, tNozzle, \Wobj := wobjPlatform;
		MoveL Offs(pZero, 136.047,14.044, 0.4), v2000, z0, tNozzle, \Wobj := wobjPlatform;
		MoveL Offs(pZero, 134.903,14.259, 0.4), v2000, z0, tNozzle, \Wobj := wobjPlatform;
		MoveL Offs(pZero, 133.755,14.457, 0.4), v2000, z0, tNozzle, \Wobj := wobjPlatform;
		MoveL Offs(pZero, 132.604,14.638, 0.4), v2000, z0, tNozzle, \Wobj := wobjPlatform;
		MoveL Offs(pZero, 131.451,14.801, 0.4), v2000, z0, tNozzle, \Wobj := wobjPlatform;
		MoveL Offs(pZero, 130.296,14.948, 0.4), v2000, z0, tNozzle, \Wobj := wobjPlatform;
		MoveL Offs(pZero, 129.138,15.077, 0.4), v2000, z0, tNozzle, \Wobj := wobjPlatform;
		MoveL Offs(pZero, 127.979,15.189, 0.4), v2000, z0, tNozzle, \Wobj := wobjPlatform;
		MoveL Offs(pZero, 126.818,15.284, 0.4), v2000, z0, tNozzle, \Wobj := wobjPlatform;
		MoveL Offs(pZero, 125.656,15.362, 0.4), v2000, z0, tNozzle, \Wobj := wobjPlatform;
		MoveL Offs(pZero, 124.493,15.422, 0.4), v2000, z0, tNozzle, \Wobj := wobjPlatform;
		MoveL Offs(pZero, 123.329,15.465, 0.4), v2000, z0, tNozzle, \Wobj := wobjPlatform;
		MoveL Offs(pZero, 122.165,15.491, 0.4), v2000, z0, tNozzle, \Wobj := wobjPlatform;
		MoveL Offs(pZero, 121.009,15.5, 0.4), v2000, z0, tNozzle, \Wobj := wobjPlatform;
		MoveL Offs(pZero, 92.5,15.5, 0.4), v2000, z0, tNozzle, \Wobj := wobjPlatform;
		MoveL Offs(pZero, 63.991,15.5, 0.4), v2000, z0, tNozzle, \Wobj := wobjPlatform;
		MoveL Offs(pZero, 62.835,15.491, 0.4), v2000, z0, tNozzle, \Wobj := wobjPlatform;
		MoveL Offs(pZero, 61.671,15.465, 0.4), v2000, z0, tNozzle, \Wobj := wobjPlatform;
		MoveL Offs(pZero, 60.507,15.422, 0.4), v2000, z0, tNozzle, \Wobj := wobjPlatform;
		MoveL Offs(pZero, 59.344,15.362, 0.4), v2000, z0, tNozzle, \Wobj := wobjPlatform;
		MoveL Offs(pZero, 58.182,15.284, 0.4), v2000, z0, tNozzle, \Wobj := wobjPlatform;
		MoveL Offs(pZero, 57.021,15.189, 0.4), v2000, z0, tNozzle, \Wobj := wobjPlatform;
		MoveL Offs(pZero, 55.862,15.077, 0.4), v2000, z0, tNozzle, \Wobj := wobjPlatform;
		MoveL Offs(pZero, 54.704,14.948, 0.4), v2000, z0, tNozzle, \Wobj := wobjPlatform;
		MoveL Offs(pZero, 53.549,14.801, 0.4), v2000, z0, tNozzle, \Wobj := wobjPlatform;
		MoveL Offs(pZero, 52.396,14.638, 0.4), v2000, z0, tNozzle, \Wobj := wobjPlatform;
		MoveL Offs(pZero, 51.245,14.457, 0.4), v2000, z0, tNozzle, \Wobj := wobjPlatform;
		MoveL Offs(pZero, 50.097,14.259, 0.4), v2000, z0, tNozzle, \Wobj := wobjPlatform;
		MoveL Offs(pZero, 48.953,14.044, 0.4), v2000, z0, tNozzle, \Wobj := wobjPlatform;
		MoveL Offs(pZero, 47.811,13.813, 0.4), v2000, z0, tNozzle, \Wobj := wobjPlatform;
		MoveL Offs(pZero, 46.673,13.564, 0.4), v2000, z0, tNozzle, \Wobj := wobjPlatform;
		MoveL Offs(pZero, 45.539,13.298, 0.4), v2000, z0, tNozzle, \Wobj := wobjPlatform;
		MoveL Offs(pZero, 44.409,13.016, 0.4), v2000, z0, tNozzle, \Wobj := wobjPlatform;
		MoveL Offs(pZero, 43.284,12.717, 0.4), v2000, z0, tNozzle, \Wobj := wobjPlatform;
		MoveL Offs(pZero, 42.513,12.5, 0.4), v2000, z0, tNozzle, \Wobj := wobjPlatform;
		MoveL Offs(pZero, 12.5,12.5, 0.4), v2000, z0, tNozzle, \Wobj := wobjPlatform;
		MoveL Offs(pZero, 13.0,13.0, 0.4), v999, z0, tNozzle, \Wobj := wobjPlatform;
		MoveL Offs(pZero, 13.0,19.5, 0.4), v2000, z0, tNozzle, \Wobj := wobjPlatform;
		MoveL Offs(pZero, 13.0,26.0, 0.4), v2000, z0, tNozzle, \Wobj := wobjPlatform;
		MoveL Offs(pZero, 42.444,26.0, 0.4), v2000, z0, tNozzle, \Wobj := wobjPlatform;
		MoveL Offs(pZero, 43.152,25.801, 0.4), v2000, z0, tNozzle, \Wobj := wobjPlatform;
		MoveL Offs(pZero, 44.284,25.5, 0.4), v2000, z0, tNozzle, \Wobj := wobjPlatform;
		MoveL Offs(pZero, 45.422,25.216, 0.4), v2000, z0, tNozzle, \Wobj := wobjPlatform;
		MoveL Offs(pZero, 46.563,24.948, 0.4), v2000, z0, tNozzle, \Wobj := wobjPlatform;
		MoveL Offs(pZero, 47.708,24.698, 0.4), v2000, z0, tNozzle, \Wobj := wobjPlatform;
		MoveL Offs(pZero, 48.857,24.465, 0.4), v2000, z0, tNozzle, \Wobj := wobjPlatform;
		MoveL Offs(pZero, 50.009,24.249, 0.4), v2000, z0, tNozzle, \Wobj := wobjPlatform;
		MoveL Offs(pZero, 51.164,24.05, 0.4), v2000, z0, tNozzle, \Wobj := wobjPlatform;
		MoveL Offs(pZero, 52.322,23.868, 0.4), v2000, z0, tNozzle, \Wobj := wobjPlatform;
		MoveL Offs(pZero, 53.482,23.703, 0.4), v2000, z0, tNozzle, \Wobj := wobjPlatform;
		MoveL Offs(pZero, 54.645,23.556, 0.4), v2000, z0, tNozzle, \Wobj := wobjPlatform;
		MoveL Offs(pZero, 55.81,23.426, 0.4), v2000, z0, tNozzle, \Wobj := wobjPlatform;
		MoveL Offs(pZero, 56.977,23.313, 0.4), v2000, z0, tNozzle, \Wobj := wobjPlatform;
		MoveL Offs(pZero, 58.145,23.217, 0.4), v2000, z0, tNozzle, \Wobj := wobjPlatform;
		MoveL Offs(pZero, 59.314,23.139, 0.4), v2000, z0, tNozzle, \Wobj := wobjPlatform;
		MoveL Offs(pZero, 60.485,23.078, 0.4), v2000, z0, tNozzle, \Wobj := wobjPlatform;
		MoveL Offs(pZero, 61.656,23.035, 0.4), v2000, z0, tNozzle, \Wobj := wobjPlatform;
		MoveL Offs(pZero, 62.828,23.009, 0.4), v2000, z0, tNozzle, \Wobj := wobjPlatform;
		MoveL Offs(pZero, 63.989,23.0, 0.4), v2000, z0, tNozzle, \Wobj := wobjPlatform;
		MoveL Offs(pZero, 92.5,23.0, 0.4), v2000, z0, tNozzle, \Wobj := wobjPlatform;
		MoveL Offs(pZero, 121.011,23.0, 0.4), v2000, z0, tNozzle, \Wobj := wobjPlatform;
		MoveL Offs(pZero, 122.172,23.009, 0.4), v2000, z0, tNozzle, \Wobj := wobjPlatform;
		MoveL Offs(pZero, 123.344,23.035, 0.4), v2000, z0, tNozzle, \Wobj := wobjPlatform;
		MoveL Offs(pZero, 124.515,23.078, 0.4), v2000, z0, tNozzle, \Wobj := wobjPlatform;
		MoveL Offs(pZero, 125.686,23.139, 0.4), v2000, z0, tNozzle, \Wobj := wobjPlatform;
		MoveL Offs(pZero, 126.855,23.217, 0.4), v2000, z0, tNozzle, \Wobj := wobjPlatform;
		MoveL Offs(pZero, 128.023,23.313, 0.4), v2000, z0, tNozzle, \Wobj := wobjPlatform;
		MoveL Offs(pZero, 129.19,23.426, 0.4), v2000, z0, tNozzle, \Wobj := wobjPlatform;
		MoveL Offs(pZero, 130.355,23.556, 0.4), v2000, z0, tNozzle, \Wobj := wobjPlatform;
		MoveL Offs(pZero, 131.518,23.703, 0.4), v2000, z0, tNozzle, \Wobj := wobjPlatform;
		MoveL Offs(pZero, 132.678,23.868, 0.4), v2000, z0, tNozzle, \Wobj := wobjPlatform;
		MoveL Offs(pZero, 133.836,24.05, 0.4), v2000, z0, tNozzle, \Wobj := wobjPlatform;
		MoveL Offs(pZero, 134.991,24.249, 0.4), v2000, z0, tNozzle, \Wobj := wobjPlatform;
		MoveL Offs(pZero, 136.143,24.465, 0.4), v2000, z0, tNozzle, \Wobj := wobjPlatform;
		MoveL Offs(pZero, 137.292,24.698, 0.4), v2000, z0, tNozzle, \Wobj := wobjPlatform;
		MoveL Offs(pZero, 138.437,24.948, 0.4), v2000, z0, tNozzle, \Wobj := wobjPlatform;
		MoveL Offs(pZero, 139.578,25.216, 0.4), v2000, z0, tNozzle, \Wobj := wobjPlatform;
		MoveL Offs(pZero, 140.716,25.5, 0.4), v2000, z0, tNozzle, \Wobj := wobjPlatform;
		MoveL Offs(pZero, 141.848,25.801, 0.4), v2000, z0, tNozzle, \Wobj := wobjPlatform;
		MoveL Offs(pZero, 142.556,26.0, 0.4), v2000, z0, tNozzle, \Wobj := wobjPlatform;
		MoveL Offs(pZero, 172.0,26.0, 0.4), v2000, z0, tNozzle, \Wobj := wobjPlatform;
		MoveL Offs(pZero, 172.0,19.5, 0.4), v2000, z0, tNozzle, \Wobj := wobjPlatform;
		MoveL Offs(pZero, 172.0,13.0, 0.4), v2000, z0, tNozzle, \Wobj := wobjPlatform;
		MoveL Offs(pZero, 142.556,13.0, 0.4), v2000, z0, tNozzle, \Wobj := wobjPlatform;
		MoveL Offs(pZero, 141.848,13.199, 0.4), v2000, z0, tNozzle, \Wobj := wobjPlatform;
		MoveL Offs(pZero, 140.716,13.5, 0.4), v2000, z0, tNozzle, \Wobj := wobjPlatform;
		MoveL Offs(pZero, 139.578,13.784, 0.4), v2000, z0, tNozzle, \Wobj := wobjPlatform;
		MoveL Offs(pZero, 138.437,14.052, 0.4), v2000, z0, tNozzle, \Wobj := wobjPlatform;
		MoveL Offs(pZero, 137.292,14.302, 0.4), v2000, z0, tNozzle, \Wobj := wobjPlatform;
		MoveL Offs(pZero, 136.143,14.535, 0.4), v2000, z0, tNozzle, \Wobj := wobjPlatform;
		MoveL Offs(pZero, 134.991,14.751, 0.4), v2000, z0, tNozzle, \Wobj := wobjPlatform;
		MoveL Offs(pZero, 133.836,14.95, 0.4), v2000, z0, tNozzle, \Wobj := wobjPlatform;
		MoveL Offs(pZero, 132.678,15.132, 0.4), v2000, z0, tNozzle, \Wobj := wobjPlatform;
		MoveL Offs(pZero, 131.518,15.297, 0.4), v2000, z0, tNozzle, \Wobj := wobjPlatform;
		MoveL Offs(pZero, 130.355,15.444, 0.4), v2000, z0, tNozzle, \Wobj := wobjPlatform;
		MoveL Offs(pZero, 129.19,15.574, 0.4), v2000, z0, tNozzle, \Wobj := wobjPlatform;
		MoveL Offs(pZero, 128.023,15.687, 0.4), v2000, z0, tNozzle, \Wobj := wobjPlatform;
		MoveL Offs(pZero, 126.855,15.783, 0.4), v2000, z0, tNozzle, \Wobj := wobjPlatform;
		MoveL Offs(pZero, 125.686,15.861, 0.4), v2000, z0, tNozzle, \Wobj := wobjPlatform;
		MoveL Offs(pZero, 124.515,15.922, 0.4), v2000, z0, tNozzle, \Wobj := wobjPlatform;
		MoveL Offs(pZero, 123.344,15.965, 0.4), v2000, z0, tNozzle, \Wobj := wobjPlatform;
		MoveL Offs(pZero, 122.172,15.991, 0.4), v2000, z0, tNozzle, \Wobj := wobjPlatform;
		MoveL Offs(pZero, 121.011,16.0, 0.4), v2000, z0, tNozzle, \Wobj := wobjPlatform;
		MoveL Offs(pZero, 92.5,16.0, 0.4), v2000, z0, tNozzle, \Wobj := wobjPlatform;
		MoveL Offs(pZero, 63.989,16.0, 0.4), v2000, z0, tNozzle, \Wobj := wobjPlatform;
		MoveL Offs(pZero, 62.828,15.991, 0.4), v2000, z0, tNozzle, \Wobj := wobjPlatform;
		MoveL Offs(pZero, 61.656,15.965, 0.4), v2000, z0, tNozzle, \Wobj := wobjPlatform;
		MoveL Offs(pZero, 60.485,15.922, 0.4), v2000, z0, tNozzle, \Wobj := wobjPlatform;
		MoveL Offs(pZero, 59.314,15.861, 0.4), v2000, z0, tNozzle, \Wobj := wobjPlatform;
		MoveL Offs(pZero, 58.145,15.783, 0.4), v2000, z0, tNozzle, \Wobj := wobjPlatform;
		MoveL Offs(pZero, 56.977,15.687, 0.4), v2000, z0, tNozzle, \Wobj := wobjPlatform;
		MoveL Offs(pZero, 55.81,15.574, 0.4), v2000, z0, tNozzle, \Wobj := wobjPlatform;
		MoveL Offs(pZero, 54.645,15.444, 0.4), v2000, z0, tNozzle, \Wobj := wobjPlatform;
		MoveL Offs(pZero, 53.482,15.297, 0.4), v2000, z0, tNozzle, \Wobj := wobjPlatform;
		MoveL Offs(pZero, 52.322,15.132, 0.4), v2000, z0, tNozzle, \Wobj := wobjPlatform;
		MoveL Offs(pZero, 51.164,14.95, 0.4), v2000, z0, tNozzle, \Wobj := wobjPlatform;
		MoveL Offs(pZero, 50.009,14.751, 0.4), v2000, z0, tNozzle, \Wobj := wobjPlatform;
		MoveL Offs(pZero, 48.857,14.535, 0.4), v2000, z0, tNozzle, \Wobj := wobjPlatform;
		MoveL Offs(pZero, 47.708,14.302, 0.4), v2000, z0, tNozzle, \Wobj := wobjPlatform;
		MoveL Offs(pZero, 46.563,14.052, 0.4), v2000, z0, tNozzle, \Wobj := wobjPlatform;
		MoveL Offs(pZero, 45.422,13.784, 0.4), v2000, z0, tNozzle, \Wobj := wobjPlatform;
		MoveL Offs(pZero, 44.284,13.5, 0.4), v2000, z0, tNozzle, \Wobj := wobjPlatform;
		MoveL Offs(pZero, 43.152,13.199, 0.4), v2000, z0, tNozzle, \Wobj := wobjPlatform;
		MoveL Offs(pZero, 42.444,13.0, 0.4), v2000, z0, tNozzle, \Wobj := wobjPlatform;
		MoveL Offs(pZero, 13.0,13.0, 0.4), v2000, z0, tNozzle, \Wobj := wobjPlatform;
		MoveL Offs(pZero, 13.5,13.5, 0.4), v999, z0, tNozzle, \Wobj := wobjPlatform;
		MoveL Offs(pZero, 13.5,19.5, 0.4), v2000, z0, tNozzle, \Wobj := wobjPlatform;
		MoveL Offs(pZero, 13.5,25.5, 0.4), v2000, z0, tNozzle, \Wobj := wobjPlatform;
		MoveL Offs(pZero, 42.375,25.5, 0.4), v2000, z0, tNozzle, \Wobj := wobjPlatform;
		MoveL Offs(pZero, 43.02,25.318, 0.4), v2000, z0, tNozzle, \Wobj := wobjPlatform;
		MoveL Offs(pZero, 44.16,25.016, 0.4), v2000, z0, tNozzle, \Wobj := wobjPlatform;
		MoveL Offs(pZero, 45.304,24.73, 0.4), v2000, z0, tNozzle, \Wobj := wobjPlatform;
		MoveL Offs(pZero, 46.453,24.461, 0.4), v2000, z0, tNozzle, \Wobj := wobjPlatform;
		MoveL Offs(pZero, 47.605,24.209, 0.4), v2000, z0, tNozzle, \Wobj := wobjPlatform;
		MoveL Offs(pZero, 48.761,23.974, 0.4), v2000, z0, tNozzle, \Wobj := wobjPlatform;
		MoveL Offs(pZero, 49.92,23.757, 0.4), v2000, z0, tNozzle, \Wobj := wobjPlatform;
		MoveL Offs(pZero, 51.083,23.556, 0.4), v2000, z0, tNozzle, \Wobj := wobjPlatform;
		MoveL Offs(pZero, 52.248,23.373, 0.4), v2000, z0, tNozzle, \Wobj := wobjPlatform;
		MoveL Offs(pZero, 53.416,23.208, 0.4), v2000, z0, tNozzle, \Wobj := wobjPlatform;
		MoveL Offs(pZero, 54.586,23.059, 0.4), v2000, z0, tNozzle, \Wobj := wobjPlatform;
		MoveL Offs(pZero, 55.758,22.928, 0.4), v2000, z0, tNozzle, \Wobj := wobjPlatform;
		MoveL Offs(pZero, 56.932,22.815, 0.4), v2000, z0, tNozzle, \Wobj := wobjPlatform;
		MoveL Offs(pZero, 58.108,22.719, 0.4), v2000, z0, tNozzle, \Wobj := wobjPlatform;
		MoveL Offs(pZero, 59.285,22.64, 0.4), v2000, z0, tNozzle, \Wobj := wobjPlatform;
		MoveL Offs(pZero, 60.463,22.579, 0.4), v2000, z0, tNozzle, \Wobj := wobjPlatform;
		MoveL Offs(pZero, 61.641,22.535, 0.4), v2000, z0, tNozzle, \Wobj := wobjPlatform;
		MoveL Offs(pZero, 62.82,22.509, 0.4), v2000, z0, tNozzle, \Wobj := wobjPlatform;
		MoveL Offs(pZero, 63.987,22.5, 0.4), v2000, z0, tNozzle, \Wobj := wobjPlatform;
		MoveL Offs(pZero, 92.5,22.5, 0.4), v2000, z0, tNozzle, \Wobj := wobjPlatform;
		MoveL Offs(pZero, 121.013,22.5, 0.4), v2000, z0, tNozzle, \Wobj := wobjPlatform;
		MoveL Offs(pZero, 122.18,22.509, 0.4), v2000, z0, tNozzle, \Wobj := wobjPlatform;
		MoveL Offs(pZero, 123.359,22.535, 0.4), v2000, z0, tNozzle, \Wobj := wobjPlatform;
		MoveL Offs(pZero, 124.537,22.579, 0.4), v2000, z0, tNozzle, \Wobj := wobjPlatform;
		MoveL Offs(pZero, 125.715,22.64, 0.4), v2000, z0, tNozzle, \Wobj := wobjPlatform;
		MoveL Offs(pZero, 126.892,22.719, 0.4), v2000, z0, tNozzle, \Wobj := wobjPlatform;
		MoveL Offs(pZero, 128.068,22.815, 0.4), v2000, z0, tNozzle, \Wobj := wobjPlatform;
		MoveL Offs(pZero, 129.242,22.928, 0.4), v2000, z0, tNozzle, \Wobj := wobjPlatform;
		MoveL Offs(pZero, 130.414,23.059, 0.4), v2000, z0, tNozzle, \Wobj := wobjPlatform;
		MoveL Offs(pZero, 131.584,23.208, 0.4), v2000, z0, tNozzle, \Wobj := wobjPlatform;
		MoveL Offs(pZero, 132.752,23.373, 0.4), v2000, z0, tNozzle, \Wobj := wobjPlatform;
		MoveL Offs(pZero, 133.917,23.556, 0.4), v2000, z0, tNozzle, \Wobj := wobjPlatform;
		MoveL Offs(pZero, 135.08,23.757, 0.4), v2000, z0, tNozzle, \Wobj := wobjPlatform;
		MoveL Offs(pZero, 136.239,23.974, 0.4), v2000, z0, tNozzle, \Wobj := wobjPlatform;
		MoveL Offs(pZero, 137.395,24.209, 0.4), v2000, z0, tNozzle, \Wobj := wobjPlatform;
		MoveL Offs(pZero, 138.547,24.461, 0.4), v2000, z0, tNozzle, \Wobj := wobjPlatform;
		MoveL Offs(pZero, 139.696,24.73, 0.4), v2000, z0, tNozzle, \Wobj := wobjPlatform;
		MoveL Offs(pZero, 140.84,25.016, 0.4), v2000, z0, tNozzle, \Wobj := wobjPlatform;
		MoveL Offs(pZero, 141.98,25.318, 0.4), v2000, z0, tNozzle, \Wobj := wobjPlatform;
		MoveL Offs(pZero, 142.625,25.5, 0.4), v2000, z0, tNozzle, \Wobj := wobjPlatform;
		MoveL Offs(pZero, 171.5,25.5, 0.4), v2000, z0, tNozzle, \Wobj := wobjPlatform;
		MoveL Offs(pZero, 171.5,19.5, 0.4), v2000, z0, tNozzle, \Wobj := wobjPlatform;
		MoveL Offs(pZero, 171.5,13.5, 0.4), v2000, z0, tNozzle, \Wobj := wobjPlatform;
		MoveL Offs(pZero, 142.625,13.5, 0.4), v2000, z0, tNozzle, \Wobj := wobjPlatform;
		MoveL Offs(pZero, 141.98,13.682, 0.4), v2000, z0, tNozzle, \Wobj := wobjPlatform;
		MoveL Offs(pZero, 140.84,13.984, 0.4), v2000, z0, tNozzle, \Wobj := wobjPlatform;
		MoveL Offs(pZero, 139.696,14.27, 0.4), v2000, z0, tNozzle, \Wobj := wobjPlatform;
		MoveL Offs(pZero, 138.547,14.539, 0.4), v2000, z0, tNozzle, \Wobj := wobjPlatform;
		MoveL Offs(pZero, 137.395,14.791, 0.4), v2000, z0, tNozzle, \Wobj := wobjPlatform;
		MoveL Offs(pZero, 136.239,15.026, 0.4), v2000, z0, tNozzle, \Wobj := wobjPlatform;
		MoveL Offs(pZero, 135.08,15.243, 0.4), v2000, z0, tNozzle, \Wobj := wobjPlatform;
		MoveL Offs(pZero, 133.917,15.444, 0.4), v2000, z0, tNozzle, \Wobj := wobjPlatform;
		MoveL Offs(pZero, 132.752,15.627, 0.4), v2000, z0, tNozzle, \Wobj := wobjPlatform;
		MoveL Offs(pZero, 131.584,15.792, 0.4), v2000, z0, tNozzle, \Wobj := wobjPlatform;
		MoveL Offs(pZero, 130.414,15.941, 0.4), v2000, z0, tNozzle, \Wobj := wobjPlatform;
		MoveL Offs(pZero, 129.242,16.072, 0.4), v2000, z0, tNozzle, \Wobj := wobjPlatform;
		MoveL Offs(pZero, 128.068,16.185, 0.4), v2000, z0, tNozzle, \Wobj := wobjPlatform;
		MoveL Offs(pZero, 126.892,16.281, 0.4), v2000, z0, tNozzle, \Wobj := wobjPlatform;
		MoveL Offs(pZero, 125.715,16.36, 0.4), v2000, z0, tNozzle, \Wobj := wobjPlatform;
		MoveL Offs(pZero, 124.537,16.421, 0.4), v2000, z0, tNozzle, \Wobj := wobjPlatform;
		MoveL Offs(pZero, 123.359,16.465, 0.4), v2000, z0, tNozzle, \Wobj := wobjPlatform;
		MoveL Offs(pZero, 122.18,16.491, 0.4), v2000, z0, tNozzle, \Wobj := wobjPlatform;
		MoveL Offs(pZero, 121.013,16.5, 0.4), v2000, z0, tNozzle, \Wobj := wobjPlatform;
		MoveL Offs(pZero, 92.5,16.5, 0.4), v2000, z0, tNozzle, \Wobj := wobjPlatform;
		MoveL Offs(pZero, 63.987,16.5, 0.4), v2000, z0, tNozzle, \Wobj := wobjPlatform;
		MoveL Offs(pZero, 62.82,16.491, 0.4), v2000, z0, tNozzle, \Wobj := wobjPlatform;
		MoveL Offs(pZero, 61.641,16.465, 0.4), v2000, z0, tNozzle, \Wobj := wobjPlatform;
		MoveL Offs(pZero, 60.463,16.421, 0.4), v2000, z0, tNozzle, \Wobj := wobjPlatform;
		MoveL Offs(pZero, 59.285,16.36, 0.4), v2000, z0, tNozzle, \Wobj := wobjPlatform;
		MoveL Offs(pZero, 58.108,16.281, 0.4), v2000, z0, tNozzle, \Wobj := wobjPlatform;
		MoveL Offs(pZero, 56.932,16.185, 0.4), v2000, z0, tNozzle, \Wobj := wobjPlatform;
		MoveL Offs(pZero, 55.758,16.072, 0.4), v2000, z0, tNozzle, \Wobj := wobjPlatform;
		MoveL Offs(pZero, 54.586,15.941, 0.4), v2000, z0, tNozzle, \Wobj := wobjPlatform;
		MoveL Offs(pZero, 53.416,15.792, 0.4), v2000, z0, tNozzle, \Wobj := wobjPlatform;
		MoveL Offs(pZero, 52.248,15.627, 0.4), v2000, z0, tNozzle, \Wobj := wobjPlatform;
		MoveL Offs(pZero, 51.083,15.444, 0.4), v2000, z0, tNozzle, \Wobj := wobjPlatform;
		MoveL Offs(pZero, 49.92,15.243, 0.4), v2000, z0, tNozzle, \Wobj := wobjPlatform;
		MoveL Offs(pZero, 48.761,15.026, 0.4), v2000, z0, tNozzle, \Wobj := wobjPlatform;
		MoveL Offs(pZero, 47.605,14.791, 0.4), v2000, z0, tNozzle, \Wobj := wobjPlatform;
		MoveL Offs(pZero, 46.453,14.539, 0.4), v2000, z0, tNozzle, \Wobj := wobjPlatform;
		MoveL Offs(pZero, 45.304,14.27, 0.4), v2000, z0, tNozzle, \Wobj := wobjPlatform;
		MoveL Offs(pZero, 44.16,13.984, 0.4), v2000, z0, tNozzle, \Wobj := wobjPlatform;
		MoveL Offs(pZero, 43.02,13.682, 0.4), v2000, z0, tNozzle, \Wobj := wobjPlatform;
		MoveL Offs(pZero, 42.375,13.5, 0.4), v2000, z0, tNozzle, \Wobj := wobjPlatform;
		MoveL Offs(pZero, 13.5,13.5, 0.4), v2000, z0, tNozzle, \Wobj := wobjPlatform;
		MoveL Offs(pZero, 14.0,14.0, 0.4), v999, z0, tNozzle, \Wobj := wobjPlatform;
		MoveL Offs(pZero, 14.0,19.5, 0.4), v2000, z0, tNozzle, \Wobj := wobjPlatform;
		MoveL Offs(pZero, 14.0,25.0, 0.4), v2000, z0, tNozzle, \Wobj := wobjPlatform;
		MoveL Offs(pZero, 42.306,25.0, 0.4), v2000, z0, tNozzle, \Wobj := wobjPlatform;
		MoveL Offs(pZero, 42.888,24.836, 0.4), v2000, z0, tNozzle, \Wobj := wobjPlatform;
		MoveL Offs(pZero, 44.035,24.531, 0.4), v2000, z0, tNozzle, \Wobj := wobjPlatform;
		MoveL Offs(pZero, 45.186,24.244, 0.4), v2000, z0, tNozzle, \Wobj := wobjPlatform;
		MoveL Offs(pZero, 46.342,23.973, 0.4), v2000, z0, tNozzle, \Wobj := wobjPlatform;
		MoveL Offs(pZero, 47.502,23.72, 0.4), v2000, z0, tNozzle, \Wobj := wobjPlatform;
		MoveL Offs(pZero, 48.665,23.484, 0.4), v2000, z0, tNozzle, \Wobj := wobjPlatform;
		MoveL Offs(pZero, 49.832,23.265, 0.4), v2000, z0, tNozzle, \Wobj := wobjPlatform;
		MoveL Offs(pZero, 51.001,23.063, 0.4), v2000, z0, tNozzle, \Wobj := wobjPlatform;
		MoveL Offs(pZero, 52.174,22.879, 0.4), v2000, z0, tNozzle, \Wobj := wobjPlatform;
		MoveL Offs(pZero, 53.349,22.712, 0.4), v2000, z0, tNozzle, \Wobj := wobjPlatform;
		MoveL Offs(pZero, 54.527,22.563, 0.4), v2000, z0, tNozzle, \Wobj := wobjPlatform;
		MoveL Offs(pZero, 55.706,22.431, 0.4), v2000, z0, tNozzle, \Wobj := wobjPlatform;
		MoveL Offs(pZero, 56.888,22.317, 0.4), v2000, z0, tNozzle, \Wobj := wobjPlatform;
		MoveL Offs(pZero, 58.071,22.22, 0.4), v2000, z0, tNozzle, \Wobj := wobjPlatform;
		MoveL Offs(pZero, 59.255,22.141, 0.4), v2000, z0, tNozzle, \Wobj := wobjPlatform;
		MoveL Offs(pZero, 60.44,22.079, 0.4), v2000, z0, tNozzle, \Wobj := wobjPlatform;
		MoveL Offs(pZero, 61.626,22.035, 0.4), v2000, z0, tNozzle, \Wobj := wobjPlatform;
		MoveL Offs(pZero, 62.813,22.009, 0.4), v2000, z0, tNozzle, \Wobj := wobjPlatform;
		MoveL Offs(pZero, 63.985,22.0, 0.4), v2000, z0, tNozzle, \Wobj := wobjPlatform;
		MoveL Offs(pZero, 92.5,22.0, 0.4), v2000, z0, tNozzle, \Wobj := wobjPlatform;
		MoveL Offs(pZero, 121.015,22.0, 0.4), v2000, z0, tNozzle, \Wobj := wobjPlatform;
		MoveL Offs(pZero, 122.187,22.009, 0.4), v2000, z0, tNozzle, \Wobj := wobjPlatform;
		MoveL Offs(pZero, 123.374,22.035, 0.4), v2000, z0, tNozzle, \Wobj := wobjPlatform;
		MoveL Offs(pZero, 124.56,22.079, 0.4), v2000, z0, tNozzle, \Wobj := wobjPlatform;
		MoveL Offs(pZero, 125.745,22.141, 0.4), v2000, z0, tNozzle, \Wobj := wobjPlatform;
		MoveL Offs(pZero, 126.929,22.22, 0.4), v2000, z0, tNozzle, \Wobj := wobjPlatform;
		MoveL Offs(pZero, 128.112,22.317, 0.4), v2000, z0, tNozzle, \Wobj := wobjPlatform;
		MoveL Offs(pZero, 129.294,22.431, 0.4), v2000, z0, tNozzle, \Wobj := wobjPlatform;
		MoveL Offs(pZero, 130.473,22.563, 0.4), v2000, z0, tNozzle, \Wobj := wobjPlatform;
		MoveL Offs(pZero, 131.651,22.712, 0.4), v2000, z0, tNozzle, \Wobj := wobjPlatform;
		MoveL Offs(pZero, 132.826,22.879, 0.4), v2000, z0, tNozzle, \Wobj := wobjPlatform;
		MoveL Offs(pZero, 133.999,23.063, 0.4), v2000, z0, tNozzle, \Wobj := wobjPlatform;
		MoveL Offs(pZero, 135.168,23.265, 0.4), v2000, z0, tNozzle, \Wobj := wobjPlatform;
		MoveL Offs(pZero, 136.335,23.484, 0.4), v2000, z0, tNozzle, \Wobj := wobjPlatform;
		MoveL Offs(pZero, 137.498,23.72, 0.4), v2000, z0, tNozzle, \Wobj := wobjPlatform;
		MoveL Offs(pZero, 138.658,23.973, 0.4), v2000, z0, tNozzle, \Wobj := wobjPlatform;
		MoveL Offs(pZero, 139.814,24.244, 0.4), v2000, z0, tNozzle, \Wobj := wobjPlatform;
		MoveL Offs(pZero, 140.965,24.531, 0.4), v2000, z0, tNozzle, \Wobj := wobjPlatform;
		MoveL Offs(pZero, 142.112,24.836, 0.4), v2000, z0, tNozzle, \Wobj := wobjPlatform;
		MoveL Offs(pZero, 142.694,25.0, 0.4), v2000, z0, tNozzle, \Wobj := wobjPlatform;
		MoveL Offs(pZero, 171.0,25.0, 0.4), v2000, z0, tNozzle, \Wobj := wobjPlatform;
		MoveL Offs(pZero, 171.0,19.5, 0.4), v2000, z0, tNozzle, \Wobj := wobjPlatform;
		MoveL Offs(pZero, 171.0,14.0, 0.4), v2000, z0, tNozzle, \Wobj := wobjPlatform;
		MoveL Offs(pZero, 142.694,14.0, 0.4), v2000, z0, tNozzle, \Wobj := wobjPlatform;
		MoveL Offs(pZero, 142.112,14.164, 0.4), v2000, z0, tNozzle, \Wobj := wobjPlatform;
		MoveL Offs(pZero, 140.965,14.469, 0.4), v2000, z0, tNozzle, \Wobj := wobjPlatform;
		MoveL Offs(pZero, 139.814,14.756, 0.4), v2000, z0, tNozzle, \Wobj := wobjPlatform;
		MoveL Offs(pZero, 138.658,15.027, 0.4), v2000, z0, tNozzle, \Wobj := wobjPlatform;
		MoveL Offs(pZero, 137.498,15.28, 0.4), v2000, z0, tNozzle, \Wobj := wobjPlatform;
		MoveL Offs(pZero, 136.335,15.516, 0.4), v2000, z0, tNozzle, \Wobj := wobjPlatform;
		MoveL Offs(pZero, 135.168,15.735, 0.4), v2000, z0, tNozzle, \Wobj := wobjPlatform;
		MoveL Offs(pZero, 133.999,15.937, 0.4), v2000, z0, tNozzle, \Wobj := wobjPlatform;
		MoveL Offs(pZero, 132.826,16.121, 0.4), v2000, z0, tNozzle, \Wobj := wobjPlatform;
		MoveL Offs(pZero, 131.651,16.288, 0.4), v2000, z0, tNozzle, \Wobj := wobjPlatform;
		MoveL Offs(pZero, 130.473,16.437, 0.4), v2000, z0, tNozzle, \Wobj := wobjPlatform;
		MoveL Offs(pZero, 129.294,16.569, 0.4), v2000, z0, tNozzle, \Wobj := wobjPlatform;
		MoveL Offs(pZero, 128.112,16.683, 0.4), v2000, z0, tNozzle, \Wobj := wobjPlatform;
		MoveL Offs(pZero, 126.929,16.78, 0.4), v2000, z0, tNozzle, \Wobj := wobjPlatform;
		MoveL Offs(pZero, 125.745,16.859, 0.4), v2000, z0, tNozzle, \Wobj := wobjPlatform;
		MoveL Offs(pZero, 124.56,16.921, 0.4), v2000, z0, tNozzle, \Wobj := wobjPlatform;
		MoveL Offs(pZero, 123.374,16.965, 0.4), v2000, z0, tNozzle, \Wobj := wobjPlatform;
		MoveL Offs(pZero, 122.187,16.991, 0.4), v2000, z0, tNozzle, \Wobj := wobjPlatform;
		MoveL Offs(pZero, 121.015,17.0, 0.4), v2000, z0, tNozzle, \Wobj := wobjPlatform;
		MoveL Offs(pZero, 92.5,17.0, 0.4), v2000, z0, tNozzle, \Wobj := wobjPlatform;
		MoveL Offs(pZero, 63.985,17.0, 0.4), v2000, z0, tNozzle, \Wobj := wobjPlatform;
		MoveL Offs(pZero, 62.813,16.991, 0.4), v2000, z0, tNozzle, \Wobj := wobjPlatform;
		MoveL Offs(pZero, 61.626,16.965, 0.4), v2000, z0, tNozzle, \Wobj := wobjPlatform;
		MoveL Offs(pZero, 60.44,16.921, 0.4), v2000, z0, tNozzle, \Wobj := wobjPlatform;
		MoveL Offs(pZero, 59.255,16.859, 0.4), v2000, z0, tNozzle, \Wobj := wobjPlatform;
		MoveL Offs(pZero, 58.071,16.78, 0.4), v2000, z0, tNozzle, \Wobj := wobjPlatform;
		MoveL Offs(pZero, 56.888,16.683, 0.4), v2000, z0, tNozzle, \Wobj := wobjPlatform;
		MoveL Offs(pZero, 55.706,16.569, 0.4), v2000, z0, tNozzle, \Wobj := wobjPlatform;
		MoveL Offs(pZero, 54.527,16.437, 0.4), v2000, z0, tNozzle, \Wobj := wobjPlatform;
		MoveL Offs(pZero, 53.349,16.288, 0.4), v2000, z0, tNozzle, \Wobj := wobjPlatform;
		MoveL Offs(pZero, 52.174,16.121, 0.4), v2000, z0, tNozzle, \Wobj := wobjPlatform;
		MoveL Offs(pZero, 51.001,15.937, 0.4), v2000, z0, tNozzle, \Wobj := wobjPlatform;
		MoveL Offs(pZero, 49.832,15.735, 0.4), v2000, z0, tNozzle, \Wobj := wobjPlatform;
		MoveL Offs(pZero, 48.665,15.516, 0.4), v2000, z0, tNozzle, \Wobj := wobjPlatform;
		MoveL Offs(pZero, 47.502,15.28, 0.4), v2000, z0, tNozzle, \Wobj := wobjPlatform;
		MoveL Offs(pZero, 46.342,15.027, 0.4), v2000, z0, tNozzle, \Wobj := wobjPlatform;
		MoveL Offs(pZero, 45.186,14.756, 0.4), v2000, z0, tNozzle, \Wobj := wobjPlatform;
		MoveL Offs(pZero, 44.035,14.469, 0.4), v2000, z0, tNozzle, \Wobj := wobjPlatform;
		MoveL Offs(pZero, 42.888,14.164, 0.4), v2000, z0, tNozzle, \Wobj := wobjPlatform;
		MoveL Offs(pZero, 42.306,14.0, 0.4), v2000, z0, tNozzle, \Wobj := wobjPlatform;
		MoveL Offs(pZero, 14.0,14.0, 0.4), v2000, z0, tNozzle, \Wobj := wobjPlatform;
		MoveL Offs(pZero, 14.5,14.5, 0.4), v999, z0, tNozzle, \Wobj := wobjPlatform;
		MoveL Offs(pZero, 14.5,19.5, 0.4), v2000, z0, tNozzle, \Wobj := wobjPlatform;
		MoveL Offs(pZero, 14.5,24.5, 0.4), v2000, z0, tNozzle, \Wobj := wobjPlatform;
		MoveL Offs(pZero, 42.237,24.5, 0.4), v2000, z0, tNozzle, \Wobj := wobjPlatform;
		MoveL Offs(pZero, 42.756,24.354, 0.4), v2000, z0, tNozzle, \Wobj := wobjPlatform;
		MoveL Offs(pZero, 43.91,24.047, 0.4), v2000, z0, tNozzle, \Wobj := wobjPlatform;
		MoveL Offs(pZero, 45.069,23.758, 0.4), v2000, z0, tNozzle, \Wobj := wobjPlatform;
		MoveL Offs(pZero, 46.232,23.485, 0.4), v2000, z0, tNozzle, \Wobj := wobjPlatform;
		MoveL Offs(pZero, 47.399,23.23, 0.4), v2000, z0, tNozzle, \Wobj := wobjPlatform;
		MoveL Offs(pZero, 48.569,22.993, 0.4), v2000, z0, tNozzle, \Wobj := wobjPlatform;
		MoveL Offs(pZero, 49.743,22.773, 0.4), v2000, z0, tNozzle, \Wobj := wobjPlatform;
		MoveL Offs(pZero, 50.92,22.57, 0.4), v2000, z0, tNozzle, \Wobj := wobjPlatform;
		MoveL Offs(pZero, 52.1,22.384, 0.4), v2000, z0, tNozzle, \Wobj := wobjPlatform;
		MoveL Offs(pZero, 53.282,22.217, 0.4), v2000, z0, tNozzle, \Wobj := wobjPlatform;
		MoveL Offs(pZero, 54.467,22.066, 0.4), v2000, z0, tNozzle, \Wobj := wobjPlatform;
		MoveL Offs(pZero, 55.654,21.934, 0.4), v2000, z0, tNozzle, \Wobj := wobjPlatform;
		MoveL Offs(pZero, 56.843,21.819, 0.4), v2000, z0, tNozzle, \Wobj := wobjPlatform;
		MoveL Offs(pZero, 58.034,21.721, 0.4), v2000, z0, tNozzle, \Wobj := wobjPlatform;
		MoveL Offs(pZero, 59.225,21.642, 0.4), v2000, z0, tNozzle, \Wobj := wobjPlatform;
		MoveL Offs(pZero, 60.418,21.58, 0.4), v2000, z0, tNozzle, \Wobj := wobjPlatform;
		MoveL Offs(pZero, 61.612,21.535, 0.4), v2000, z0, tNozzle, \Wobj := wobjPlatform;
		MoveL Offs(pZero, 62.805,21.509, 0.4), v2000, z0, tNozzle, \Wobj := wobjPlatform;
		MoveL Offs(pZero, 63.983,21.5, 0.4), v2000, z0, tNozzle, \Wobj := wobjPlatform;
		MoveL Offs(pZero, 92.5,21.5, 0.4), v2000, z0, tNozzle, \Wobj := wobjPlatform;
		MoveL Offs(pZero, 121.017,21.5, 0.4), v2000, z0, tNozzle, \Wobj := wobjPlatform;
		MoveL Offs(pZero, 122.195,21.509, 0.4), v2000, z0, tNozzle, \Wobj := wobjPlatform;
		MoveL Offs(pZero, 123.388,21.535, 0.4), v2000, z0, tNozzle, \Wobj := wobjPlatform;
		MoveL Offs(pZero, 124.582,21.58, 0.4), v2000, z0, tNozzle, \Wobj := wobjPlatform;
		MoveL Offs(pZero, 125.775,21.642, 0.4), v2000, z0, tNozzle, \Wobj := wobjPlatform;
		MoveL Offs(pZero, 126.966,21.721, 0.4), v2000, z0, tNozzle, \Wobj := wobjPlatform;
		MoveL Offs(pZero, 128.157,21.819, 0.4), v2000, z0, tNozzle, \Wobj := wobjPlatform;
		MoveL Offs(pZero, 129.346,21.934, 0.4), v2000, z0, tNozzle, \Wobj := wobjPlatform;
		MoveL Offs(pZero, 130.533,22.066, 0.4), v2000, z0, tNozzle, \Wobj := wobjPlatform;
		MoveL Offs(pZero, 131.718,22.217, 0.4), v2000, z0, tNozzle, \Wobj := wobjPlatform;
		MoveL Offs(pZero, 132.9,22.384, 0.4), v2000, z0, tNozzle, \Wobj := wobjPlatform;
		MoveL Offs(pZero, 134.08,22.57, 0.4), v2000, z0, tNozzle, \Wobj := wobjPlatform;
		MoveL Offs(pZero, 135.257,22.773, 0.4), v2000, z0, tNozzle, \Wobj := wobjPlatform;
		MoveL Offs(pZero, 136.431,22.993, 0.4), v2000, z0, tNozzle, \Wobj := wobjPlatform;
		MoveL Offs(pZero, 137.601,23.23, 0.4), v2000, z0, tNozzle, \Wobj := wobjPlatform;
		MoveL Offs(pZero, 138.768,23.485, 0.4), v2000, z0, tNozzle, \Wobj := wobjPlatform;
		MoveL Offs(pZero, 139.931,23.758, 0.4), v2000, z0, tNozzle, \Wobj := wobjPlatform;
		MoveL Offs(pZero, 141.09,24.047, 0.4), v2000, z0, tNozzle, \Wobj := wobjPlatform;
		MoveL Offs(pZero, 142.244,24.354, 0.4), v2000, z0, tNozzle, \Wobj := wobjPlatform;
		MoveL Offs(pZero, 142.763,24.5, 0.4), v2000, z0, tNozzle, \Wobj := wobjPlatform;
		MoveL Offs(pZero, 170.5,24.5, 0.4), v2000, z0, tNozzle, \Wobj := wobjPlatform;
		MoveL Offs(pZero, 170.5,19.5, 0.4), v2000, z0, tNozzle, \Wobj := wobjPlatform;
		MoveL Offs(pZero, 170.5,14.5, 0.4), v2000, z0, tNozzle, \Wobj := wobjPlatform;
		MoveL Offs(pZero, 142.763,14.5, 0.4), v2000, z0, tNozzle, \Wobj := wobjPlatform;
		MoveL Offs(pZero, 142.244,14.646, 0.4), v2000, z0, tNozzle, \Wobj := wobjPlatform;
		MoveL Offs(pZero, 141.09,14.953, 0.4), v2000, z0, tNozzle, \Wobj := wobjPlatform;
		MoveL Offs(pZero, 139.931,15.242, 0.4), v2000, z0, tNozzle, \Wobj := wobjPlatform;
		MoveL Offs(pZero, 138.768,15.515, 0.4), v2000, z0, tNozzle, \Wobj := wobjPlatform;
		MoveL Offs(pZero, 137.601,15.77, 0.4), v2000, z0, tNozzle, \Wobj := wobjPlatform;
		MoveL Offs(pZero, 136.431,16.007, 0.4), v2000, z0, tNozzle, \Wobj := wobjPlatform;
		MoveL Offs(pZero, 135.257,16.227, 0.4), v2000, z0, tNozzle, \Wobj := wobjPlatform;
		MoveL Offs(pZero, 134.08,16.43, 0.4), v2000, z0, tNozzle, \Wobj := wobjPlatform;
		MoveL Offs(pZero, 132.9,16.616, 0.4), v2000, z0, tNozzle, \Wobj := wobjPlatform;
		MoveL Offs(pZero, 131.718,16.783, 0.4), v2000, z0, tNozzle, \Wobj := wobjPlatform;
		MoveL Offs(pZero, 130.533,16.934, 0.4), v2000, z0, tNozzle, \Wobj := wobjPlatform;
		MoveL Offs(pZero, 129.346,17.066, 0.4), v2000, z0, tNozzle, \Wobj := wobjPlatform;
		MoveL Offs(pZero, 128.157,17.181, 0.4), v2000, z0, tNozzle, \Wobj := wobjPlatform;
		MoveL Offs(pZero, 126.966,17.279, 0.4), v2000, z0, tNozzle, \Wobj := wobjPlatform;
		MoveL Offs(pZero, 125.775,17.358, 0.4), v2000, z0, tNozzle, \Wobj := wobjPlatform;
		MoveL Offs(pZero, 124.582,17.42, 0.4), v2000, z0, tNozzle, \Wobj := wobjPlatform;
		MoveL Offs(pZero, 123.388,17.465, 0.4), v2000, z0, tNozzle, \Wobj := wobjPlatform;
		MoveL Offs(pZero, 122.195,17.491, 0.4), v2000, z0, tNozzle, \Wobj := wobjPlatform;
		MoveL Offs(pZero, 121.017,17.5, 0.4), v2000, z0, tNozzle, \Wobj := wobjPlatform;
		MoveL Offs(pZero, 92.5,17.5, 0.4), v2000, z0, tNozzle, \Wobj := wobjPlatform;
		MoveL Offs(pZero, 63.983,17.5, 0.4), v2000, z0, tNozzle, \Wobj := wobjPlatform;
		MoveL Offs(pZero, 62.805,17.491, 0.4), v2000, z0, tNozzle, \Wobj := wobjPlatform;
		MoveL Offs(pZero, 61.612,17.465, 0.4), v2000, z0, tNozzle, \Wobj := wobjPlatform;
		MoveL Offs(pZero, 60.418,17.42, 0.4), v2000, z0, tNozzle, \Wobj := wobjPlatform;
		MoveL Offs(pZero, 59.225,17.358, 0.4), v2000, z0, tNozzle, \Wobj := wobjPlatform;
		MoveL Offs(pZero, 58.034,17.279, 0.4), v2000, z0, tNozzle, \Wobj := wobjPlatform;
		MoveL Offs(pZero, 56.843,17.181, 0.4), v2000, z0, tNozzle, \Wobj := wobjPlatform;
		MoveL Offs(pZero, 55.654,17.066, 0.4), v2000, z0, tNozzle, \Wobj := wobjPlatform;
		MoveL Offs(pZero, 54.467,16.934, 0.4), v2000, z0, tNozzle, \Wobj := wobjPlatform;
		MoveL Offs(pZero, 53.282,16.783, 0.4), v2000, z0, tNozzle, \Wobj := wobjPlatform;
		MoveL Offs(pZero, 52.1,16.616, 0.4), v2000, z0, tNozzle, \Wobj := wobjPlatform;
		MoveL Offs(pZero, 50.92,16.43, 0.4), v2000, z0, tNozzle, \Wobj := wobjPlatform;
		MoveL Offs(pZero, 49.743,16.227, 0.4), v2000, z0, tNozzle, \Wobj := wobjPlatform;
		MoveL Offs(pZero, 48.569,16.007, 0.4), v2000, z0, tNozzle, \Wobj := wobjPlatform;
		MoveL Offs(pZero, 47.399,15.77, 0.4), v2000, z0, tNozzle, \Wobj := wobjPlatform;
		MoveL Offs(pZero, 46.232,15.515, 0.4), v2000, z0, tNozzle, \Wobj := wobjPlatform;
		MoveL Offs(pZero, 45.069,15.242, 0.4), v2000, z0, tNozzle, \Wobj := wobjPlatform;
		MoveL Offs(pZero, 43.91,14.953, 0.4), v2000, z0, tNozzle, \Wobj := wobjPlatform;
		MoveL Offs(pZero, 42.756,14.646, 0.4), v2000, z0, tNozzle, \Wobj := wobjPlatform;
		MoveL Offs(pZero, 42.237,14.5, 0.4), v2000, z0, tNozzle, \Wobj := wobjPlatform;
		MoveL Offs(pZero, 14.5,14.5, 0.4), v2000, z0, tNozzle, \Wobj := wobjPlatform;
		MoveL Offs(pZero, 15.0,15.0, 0.4), v999, z0, tNozzle, \Wobj := wobjPlatform;
		MoveL Offs(pZero, 15.0,19.5, 0.4), v2000, z0, tNozzle, \Wobj := wobjPlatform;
		MoveL Offs(pZero, 15.0,24.0, 0.4), v2000, z0, tNozzle, \Wobj := wobjPlatform;
		MoveL Offs(pZero, 42.167,24.0, 0.4), v2000, z0, tNozzle, \Wobj := wobjPlatform;
		MoveL Offs(pZero, 42.624,23.871, 0.4), v2000, z0, tNozzle, \Wobj := wobjPlatform;
		MoveL Offs(pZero, 43.785,23.563, 0.4), v2000, z0, tNozzle, \Wobj := wobjPlatform;
		MoveL Offs(pZero, 44.951,23.272, 0.4), v2000, z0, tNozzle, \Wobj := wobjPlatform;
		MoveL Offs(pZero, 46.121,22.998, 0.4), v2000, z0, tNozzle, \Wobj := wobjPlatform;
		MoveL Offs(pZero, 47.296,22.741, 0.4), v2000, z0, tNozzle, \Wobj := wobjPlatform;
		MoveL Offs(pZero, 48.473,22.502, 0.4), v2000, z0, tNozzle, \Wobj := wobjPlatform;
		MoveL Offs(pZero, 49.654,22.28, 0.4), v2000, z0, tNozzle, \Wobj := wobjPlatform;
		MoveL Offs(pZero, 50.839,22.076, 0.4), v2000, z0, tNozzle, \Wobj := wobjPlatform;
		MoveL Offs(pZero, 52.026,21.89, 0.4), v2000, z0, tNozzle, \Wobj := wobjPlatform;
		MoveL Offs(pZero, 53.216,21.721, 0.4), v2000, z0, tNozzle, \Wobj := wobjPlatform;
		MoveL Offs(pZero, 54.408,21.57, 0.4), v2000, z0, tNozzle, \Wobj := wobjPlatform;
		MoveL Offs(pZero, 55.603,21.436, 0.4), v2000, z0, tNozzle, \Wobj := wobjPlatform;
		MoveL Offs(pZero, 56.799,21.321, 0.4), v2000, z0, tNozzle, \Wobj := wobjPlatform;
		MoveL Offs(pZero, 57.997,21.223, 0.4), v2000, z0, tNozzle, \Wobj := wobjPlatform;
		MoveL Offs(pZero, 59.196,21.143, 0.4), v2000, z0, tNozzle, \Wobj := wobjPlatform;
		MoveL Offs(pZero, 60.396,21.08, 0.4), v2000, z0, tNozzle, \Wobj := wobjPlatform;
		MoveL Offs(pZero, 61.597,21.036, 0.4), v2000, z0, tNozzle, \Wobj := wobjPlatform;
		MoveL Offs(pZero, 62.798,21.009, 0.4), v2000, z0, tNozzle, \Wobj := wobjPlatform;
		MoveL Offs(pZero, 63.981,21.0, 0.4), v2000, z0, tNozzle, \Wobj := wobjPlatform;
		MoveL Offs(pZero, 92.5,21.0, 0.4), v2000, z0, tNozzle, \Wobj := wobjPlatform;
		MoveL Offs(pZero, 121.019,21.0, 0.4), v2000, z0, tNozzle, \Wobj := wobjPlatform;
		MoveL Offs(pZero, 122.202,21.009, 0.4), v2000, z0, tNozzle, \Wobj := wobjPlatform;
		MoveL Offs(pZero, 123.403,21.036, 0.4), v2000, z0, tNozzle, \Wobj := wobjPlatform;
		MoveL Offs(pZero, 124.604,21.08, 0.4), v2000, z0, tNozzle, \Wobj := wobjPlatform;
		MoveL Offs(pZero, 125.804,21.143, 0.4), v2000, z0, tNozzle, \Wobj := wobjPlatform;
		MoveL Offs(pZero, 127.003,21.223, 0.4), v2000, z0, tNozzle, \Wobj := wobjPlatform;
		MoveL Offs(pZero, 128.201,21.321, 0.4), v2000, z0, tNozzle, \Wobj := wobjPlatform;
		MoveL Offs(pZero, 129.397,21.436, 0.4), v2000, z0, tNozzle, \Wobj := wobjPlatform;
		MoveL Offs(pZero, 130.592,21.57, 0.4), v2000, z0, tNozzle, \Wobj := wobjPlatform;
		MoveL Offs(pZero, 131.784,21.721, 0.4), v2000, z0, tNozzle, \Wobj := wobjPlatform;
		MoveL Offs(pZero, 132.974,21.89, 0.4), v2000, z0, tNozzle, \Wobj := wobjPlatform;
		MoveL Offs(pZero, 134.161,22.076, 0.4), v2000, z0, tNozzle, \Wobj := wobjPlatform;
		MoveL Offs(pZero, 135.346,22.28, 0.4), v2000, z0, tNozzle, \Wobj := wobjPlatform;
		MoveL Offs(pZero, 136.527,22.502, 0.4), v2000, z0, tNozzle, \Wobj := wobjPlatform;
		MoveL Offs(pZero, 137.704,22.741, 0.4), v2000, z0, tNozzle, \Wobj := wobjPlatform;
		MoveL Offs(pZero, 138.879,22.998, 0.4), v2000, z0, tNozzle, \Wobj := wobjPlatform;
		MoveL Offs(pZero, 140.049,23.272, 0.4), v2000, z0, tNozzle, \Wobj := wobjPlatform;
		MoveL Offs(pZero, 141.215,23.563, 0.4), v2000, z0, tNozzle, \Wobj := wobjPlatform;
		MoveL Offs(pZero, 142.376,23.871, 0.4), v2000, z0, tNozzle, \Wobj := wobjPlatform;
		MoveL Offs(pZero, 142.833,24.0, 0.4), v2000, z0, tNozzle, \Wobj := wobjPlatform;
		MoveL Offs(pZero, 170.0,24.0, 0.4), v2000, z0, tNozzle, \Wobj := wobjPlatform;
		MoveL Offs(pZero, 170.0,19.5, 0.4), v2000, z0, tNozzle, \Wobj := wobjPlatform;
		MoveL Offs(pZero, 170.0,15.0, 0.4), v2000, z0, tNozzle, \Wobj := wobjPlatform;
		MoveL Offs(pZero, 142.833,15.0, 0.4), v2000, z0, tNozzle, \Wobj := wobjPlatform;
		MoveL Offs(pZero, 142.376,15.129, 0.4), v2000, z0, tNozzle, \Wobj := wobjPlatform;
		MoveL Offs(pZero, 141.215,15.437, 0.4), v2000, z0, tNozzle, \Wobj := wobjPlatform;
		MoveL Offs(pZero, 140.049,15.728, 0.4), v2000, z0, tNozzle, \Wobj := wobjPlatform;
		MoveL Offs(pZero, 138.879,16.002, 0.4), v2000, z0, tNozzle, \Wobj := wobjPlatform;
		MoveL Offs(pZero, 137.704,16.259, 0.4), v2000, z0, tNozzle, \Wobj := wobjPlatform;
		MoveL Offs(pZero, 136.527,16.498, 0.4), v2000, z0, tNozzle, \Wobj := wobjPlatform;
		MoveL Offs(pZero, 135.346,16.72, 0.4), v2000, z0, tNozzle, \Wobj := wobjPlatform;
		MoveL Offs(pZero, 134.161,16.924, 0.4), v2000, z0, tNozzle, \Wobj := wobjPlatform;
		MoveL Offs(pZero, 132.974,17.11, 0.4), v2000, z0, tNozzle, \Wobj := wobjPlatform;
		MoveL Offs(pZero, 131.784,17.279, 0.4), v2000, z0, tNozzle, \Wobj := wobjPlatform;
		MoveL Offs(pZero, 130.592,17.43, 0.4), v2000, z0, tNozzle, \Wobj := wobjPlatform;
		MoveL Offs(pZero, 129.397,17.564, 0.4), v2000, z0, tNozzle, \Wobj := wobjPlatform;
		MoveL Offs(pZero, 128.201,17.679, 0.4), v2000, z0, tNozzle, \Wobj := wobjPlatform;
		MoveL Offs(pZero, 127.003,17.777, 0.4), v2000, z0, tNozzle, \Wobj := wobjPlatform;
		MoveL Offs(pZero, 125.804,17.857, 0.4), v2000, z0, tNozzle, \Wobj := wobjPlatform;
		MoveL Offs(pZero, 124.604,17.92, 0.4), v2000, z0, tNozzle, \Wobj := wobjPlatform;
		MoveL Offs(pZero, 123.403,17.964, 0.4), v2000, z0, tNozzle, \Wobj := wobjPlatform;
		MoveL Offs(pZero, 122.202,17.991, 0.4), v2000, z0, tNozzle, \Wobj := wobjPlatform;
		MoveL Offs(pZero, 121.019,18.0, 0.4), v2000, z0, tNozzle, \Wobj := wobjPlatform;
		MoveL Offs(pZero, 92.5,18.0, 0.4), v2000, z0, tNozzle, \Wobj := wobjPlatform;
		MoveL Offs(pZero, 63.981,18.0, 0.4), v2000, z0, tNozzle, \Wobj := wobjPlatform;
		MoveL Offs(pZero, 62.798,17.991, 0.4), v2000, z0, tNozzle, \Wobj := wobjPlatform;
		MoveL Offs(pZero, 61.597,17.964, 0.4), v2000, z0, tNozzle, \Wobj := wobjPlatform;
		MoveL Offs(pZero, 60.396,17.92, 0.4), v2000, z0, tNozzle, \Wobj := wobjPlatform;
		MoveL Offs(pZero, 59.196,17.857, 0.4), v2000, z0, tNozzle, \Wobj := wobjPlatform;
		MoveL Offs(pZero, 57.997,17.777, 0.4), v2000, z0, tNozzle, \Wobj := wobjPlatform;
		MoveL Offs(pZero, 56.799,17.679, 0.4), v2000, z0, tNozzle, \Wobj := wobjPlatform;
		MoveL Offs(pZero, 55.603,17.564, 0.4), v2000, z0, tNozzle, \Wobj := wobjPlatform;
		MoveL Offs(pZero, 54.408,17.43, 0.4), v2000, z0, tNozzle, \Wobj := wobjPlatform;
		MoveL Offs(pZero, 53.216,17.279, 0.4), v2000, z0, tNozzle, \Wobj := wobjPlatform;
		MoveL Offs(pZero, 52.026,17.11, 0.4), v2000, z0, tNozzle, \Wobj := wobjPlatform;
		MoveL Offs(pZero, 50.839,16.924, 0.4), v2000, z0, tNozzle, \Wobj := wobjPlatform;
		MoveL Offs(pZero, 49.654,16.72, 0.4), v2000, z0, tNozzle, \Wobj := wobjPlatform;
		MoveL Offs(pZero, 48.473,16.498, 0.4), v2000, z0, tNozzle, \Wobj := wobjPlatform;
		MoveL Offs(pZero, 47.296,16.259, 0.4), v2000, z0, tNozzle, \Wobj := wobjPlatform;
		MoveL Offs(pZero, 46.121,16.002, 0.4), v2000, z0, tNozzle, \Wobj := wobjPlatform;
		MoveL Offs(pZero, 44.951,15.728, 0.4), v2000, z0, tNozzle, \Wobj := wobjPlatform;
		MoveL Offs(pZero, 43.785,15.437, 0.4), v2000, z0, tNozzle, \Wobj := wobjPlatform;
		MoveL Offs(pZero, 42.624,15.129, 0.4), v2000, z0, tNozzle, \Wobj := wobjPlatform;
		MoveL Offs(pZero, 42.167,15.0, 0.4), v2000, z0, tNozzle, \Wobj := wobjPlatform;
		MoveL Offs(pZero, 15.0,15.0, 0.4), v2000, z0, tNozzle, \Wobj := wobjPlatform;
		MoveL Offs(pZero, 15.5,15.5, 0.4), v999, z0, tNozzle, \Wobj := wobjPlatform;
		MoveL Offs(pZero, 15.5,19.5, 0.4), v2000, z0, tNozzle, \Wobj := wobjPlatform;
		MoveL Offs(pZero, 15.5,23.5, 0.4), v2000, z0, tNozzle, \Wobj := wobjPlatform;
		MoveL Offs(pZero, 42.098,23.5, 0.4), v2000, z0, tNozzle, \Wobj := wobjPlatform;
		MoveL Offs(pZero, 42.492,23.389, 0.4), v2000, z0, tNozzle, \Wobj := wobjPlatform;
		MoveL Offs(pZero, 43.661,23.079, 0.4), v2000, z0, tNozzle, \Wobj := wobjPlatform;
		MoveL Offs(pZero, 44.834,22.786, 0.4), v2000, z0, tNozzle, \Wobj := wobjPlatform;
		MoveL Offs(pZero, 46.011,22.51, 0.4), v2000, z0, tNozzle, \Wobj := wobjPlatform;
		MoveL Offs(pZero, 47.192,22.252, 0.4), v2000, z0, tNozzle, \Wobj := wobjPlatform;
		MoveL Offs(pZero, 48.377,22.011, 0.4), v2000, z0, tNozzle, \Wobj := wobjPlatform;
		MoveL Offs(pZero, 49.566,21.788, 0.4), v2000, z0, tNozzle, \Wobj := wobjPlatform;
		MoveL Offs(pZero, 50.758,21.583, 0.4), v2000, z0, tNozzle, \Wobj := wobjPlatform;
		MoveL Offs(pZero, 51.952,21.395, 0.4), v2000, z0, tNozzle, \Wobj := wobjPlatform;
		MoveL Offs(pZero, 53.149,21.225, 0.4), v2000, z0, tNozzle, \Wobj := wobjPlatform;
		MoveL Offs(pZero, 54.349,21.073, 0.4), v2000, z0, tNozzle, \Wobj := wobjPlatform;
		MoveL Offs(pZero, 55.551,20.939, 0.4), v2000, z0, tNozzle, \Wobj := wobjPlatform;
		MoveL Offs(pZero, 56.754,20.823, 0.4), v2000, z0, tNozzle, \Wobj := wobjPlatform;
		MoveL Offs(pZero, 57.959,20.724, 0.4), v2000, z0, tNozzle, \Wobj := wobjPlatform;
		MoveL Offs(pZero, 59.166,20.643, 0.4), v2000, z0, tNozzle, \Wobj := wobjPlatform;
		MoveL Offs(pZero, 60.374,20.581, 0.4), v2000, z0, tNozzle, \Wobj := wobjPlatform;
		MoveL Offs(pZero, 61.582,20.536, 0.4), v2000, z0, tNozzle, \Wobj := wobjPlatform;
		MoveL Offs(pZero, 62.791,20.509, 0.4), v2000, z0, tNozzle, \Wobj := wobjPlatform;
		MoveL Offs(pZero, 63.979,20.5, 0.4), v2000, z0, tNozzle, \Wobj := wobjPlatform;
		MoveL Offs(pZero, 92.5,20.5, 0.4), v2000, z0, tNozzle, \Wobj := wobjPlatform;
		MoveL Offs(pZero, 121.021,20.5, 0.4), v2000, z0, tNozzle, \Wobj := wobjPlatform;
		MoveL Offs(pZero, 122.209,20.509, 0.4), v2000, z0, tNozzle, \Wobj := wobjPlatform;
		MoveL Offs(pZero, 123.418,20.536, 0.4), v2000, z0, tNozzle, \Wobj := wobjPlatform;
		MoveL Offs(pZero, 124.626,20.581, 0.4), v2000, z0, tNozzle, \Wobj := wobjPlatform;
		MoveL Offs(pZero, 125.834,20.643, 0.4), v2000, z0, tNozzle, \Wobj := wobjPlatform;
		MoveL Offs(pZero, 127.041,20.724, 0.4), v2000, z0, tNozzle, \Wobj := wobjPlatform;
		MoveL Offs(pZero, 128.246,20.823, 0.4), v2000, z0, tNozzle, \Wobj := wobjPlatform;
		MoveL Offs(pZero, 129.449,20.939, 0.4), v2000, z0, tNozzle, \Wobj := wobjPlatform;
		MoveL Offs(pZero, 130.651,21.073, 0.4), v2000, z0, tNozzle, \Wobj := wobjPlatform;
		MoveL Offs(pZero, 131.851,21.225, 0.4), v2000, z0, tNozzle, \Wobj := wobjPlatform;
		MoveL Offs(pZero, 133.048,21.395, 0.4), v2000, z0, tNozzle, \Wobj := wobjPlatform;
		MoveL Offs(pZero, 134.242,21.583, 0.4), v2000, z0, tNozzle, \Wobj := wobjPlatform;
		MoveL Offs(pZero, 135.434,21.788, 0.4), v2000, z0, tNozzle, \Wobj := wobjPlatform;
		MoveL Offs(pZero, 136.623,22.011, 0.4), v2000, z0, tNozzle, \Wobj := wobjPlatform;
		MoveL Offs(pZero, 137.808,22.252, 0.4), v2000, z0, tNozzle, \Wobj := wobjPlatform;
		MoveL Offs(pZero, 138.989,22.51, 0.4), v2000, z0, tNozzle, \Wobj := wobjPlatform;
		MoveL Offs(pZero, 140.166,22.786, 0.4), v2000, z0, tNozzle, \Wobj := wobjPlatform;
		MoveL Offs(pZero, 141.339,23.079, 0.4), v2000, z0, tNozzle, \Wobj := wobjPlatform;
		MoveL Offs(pZero, 142.508,23.389, 0.4), v2000, z0, tNozzle, \Wobj := wobjPlatform;
		MoveL Offs(pZero, 142.902,23.5, 0.4), v2000, z0, tNozzle, \Wobj := wobjPlatform;
		MoveL Offs(pZero, 169.5,23.5, 0.4), v2000, z0, tNozzle, \Wobj := wobjPlatform;
		MoveL Offs(pZero, 169.5,19.5, 0.4), v2000, z0, tNozzle, \Wobj := wobjPlatform;
		MoveL Offs(pZero, 169.5,15.5, 0.4), v2000, z0, tNozzle, \Wobj := wobjPlatform;
		MoveL Offs(pZero, 142.902,15.5, 0.4), v2000, z0, tNozzle, \Wobj := wobjPlatform;
		MoveL Offs(pZero, 142.508,15.611, 0.4), v2000, z0, tNozzle, \Wobj := wobjPlatform;
		MoveL Offs(pZero, 141.339,15.921, 0.4), v2000, z0, tNozzle, \Wobj := wobjPlatform;
		MoveL Offs(pZero, 140.166,16.214, 0.4), v2000, z0, tNozzle, \Wobj := wobjPlatform;
		MoveL Offs(pZero, 138.989,16.49, 0.4), v2000, z0, tNozzle, \Wobj := wobjPlatform;
		MoveL Offs(pZero, 137.808,16.748, 0.4), v2000, z0, tNozzle, \Wobj := wobjPlatform;
		MoveL Offs(pZero, 136.623,16.989, 0.4), v2000, z0, tNozzle, \Wobj := wobjPlatform;
		MoveL Offs(pZero, 135.434,17.212, 0.4), v2000, z0, tNozzle, \Wobj := wobjPlatform;
		MoveL Offs(pZero, 134.242,17.417, 0.4), v2000, z0, tNozzle, \Wobj := wobjPlatform;
		MoveL Offs(pZero, 133.048,17.605, 0.4), v2000, z0, tNozzle, \Wobj := wobjPlatform;
		MoveL Offs(pZero, 131.851,17.775, 0.4), v2000, z0, tNozzle, \Wobj := wobjPlatform;
		MoveL Offs(pZero, 130.651,17.927, 0.4), v2000, z0, tNozzle, \Wobj := wobjPlatform;
		MoveL Offs(pZero, 129.449,18.061, 0.4), v2000, z0, tNozzle, \Wobj := wobjPlatform;
		MoveL Offs(pZero, 128.246,18.177, 0.4), v2000, z0, tNozzle, \Wobj := wobjPlatform;
		MoveL Offs(pZero, 127.041,18.276, 0.4), v2000, z0, tNozzle, \Wobj := wobjPlatform;
		MoveL Offs(pZero, 125.834,18.357, 0.4), v2000, z0, tNozzle, \Wobj := wobjPlatform;
		MoveL Offs(pZero, 124.626,18.419, 0.4), v2000, z0, tNozzle, \Wobj := wobjPlatform;
		MoveL Offs(pZero, 123.418,18.464, 0.4), v2000, z0, tNozzle, \Wobj := wobjPlatform;
		MoveL Offs(pZero, 122.209,18.491, 0.4), v2000, z0, tNozzle, \Wobj := wobjPlatform;
		MoveL Offs(pZero, 121.021,18.5, 0.4), v2000, z0, tNozzle, \Wobj := wobjPlatform;
		MoveL Offs(pZero, 92.5,18.5, 0.4), v2000, z0, tNozzle, \Wobj := wobjPlatform;
		MoveL Offs(pZero, 63.979,18.5, 0.4), v2000, z0, tNozzle, \Wobj := wobjPlatform;
		MoveL Offs(pZero, 62.791,18.491, 0.4), v2000, z0, tNozzle, \Wobj := wobjPlatform;
		MoveL Offs(pZero, 61.582,18.464, 0.4), v2000, z0, tNozzle, \Wobj := wobjPlatform;
		MoveL Offs(pZero, 60.374,18.419, 0.4), v2000, z0, tNozzle, \Wobj := wobjPlatform;
		MoveL Offs(pZero, 59.166,18.357, 0.4), v2000, z0, tNozzle, \Wobj := wobjPlatform;
		MoveL Offs(pZero, 57.959,18.276, 0.4), v2000, z0, tNozzle, \Wobj := wobjPlatform;
		MoveL Offs(pZero, 56.754,18.177, 0.4), v2000, z0, tNozzle, \Wobj := wobjPlatform;
		MoveL Offs(pZero, 55.551,18.061, 0.4), v2000, z0, tNozzle, \Wobj := wobjPlatform;
		MoveL Offs(pZero, 54.349,17.927, 0.4), v2000, z0, tNozzle, \Wobj := wobjPlatform;
		MoveL Offs(pZero, 53.149,17.775, 0.4), v2000, z0, tNozzle, \Wobj := wobjPlatform;
		MoveL Offs(pZero, 51.952,17.605, 0.4), v2000, z0, tNozzle, \Wobj := wobjPlatform;
		MoveL Offs(pZero, 50.758,17.417, 0.4), v2000, z0, tNozzle, \Wobj := wobjPlatform;
		MoveL Offs(pZero, 49.566,17.212, 0.4), v2000, z0, tNozzle, \Wobj := wobjPlatform;
		MoveL Offs(pZero, 48.377,16.989, 0.4), v2000, z0, tNozzle, \Wobj := wobjPlatform;
		MoveL Offs(pZero, 47.192,16.748, 0.4), v2000, z0, tNozzle, \Wobj := wobjPlatform;
		MoveL Offs(pZero, 46.011,16.49, 0.4), v2000, z0, tNozzle, \Wobj := wobjPlatform;
		MoveL Offs(pZero, 44.834,16.214, 0.4), v2000, z0, tNozzle, \Wobj := wobjPlatform;
		MoveL Offs(pZero, 43.661,15.921, 0.4), v2000, z0, tNozzle, \Wobj := wobjPlatform;
		MoveL Offs(pZero, 42.492,15.611, 0.4), v2000, z0, tNozzle, \Wobj := wobjPlatform;
		MoveL Offs(pZero, 42.098,15.5, 0.4), v2000, z0, tNozzle, \Wobj := wobjPlatform;
		MoveL Offs(pZero, 15.5,15.5, 0.4), v2000, z0, tNozzle, \Wobj := wobjPlatform;
		MoveL Offs(pZero, 16.0,16.0, 0.4), v999, z0, tNozzle, \Wobj := wobjPlatform;
		MoveL Offs(pZero, 16.0,19.5, 0.4), v2000, z0, tNozzle, \Wobj := wobjPlatform;
		MoveL Offs(pZero, 16.0,23.0, 0.4), v2000, z0, tNozzle, \Wobj := wobjPlatform;
		MoveL Offs(pZero, 42.029,23.0, 0.4), v2000, z0, tNozzle, \Wobj := wobjPlatform;
		MoveL Offs(pZero, 42.36,22.907, 0.4), v2000, z0, tNozzle, \Wobj := wobjPlatform;
		MoveL Offs(pZero, 43.536,22.595, 0.4), v2000, z0, tNozzle, \Wobj := wobjPlatform;
		MoveL Offs(pZero, 44.716,22.3, 0.4), v2000, z0, tNozzle, \Wobj := wobjPlatform;
		MoveL Offs(pZero, 45.901,22.022, 0.4), v2000, z0, tNozzle, \Wobj := wobjPlatform;
		MoveL Offs(pZero, 47.089,21.763, 0.4), v2000, z0, tNozzle, \Wobj := wobjPlatform;
		MoveL Offs(pZero, 48.282,21.521, 0.4), v2000, z0, tNozzle, \Wobj := wobjPlatform;
		MoveL Offs(pZero, 49.477,21.296, 0.4), v2000, z0, tNozzle, \Wobj := wobjPlatform;
		MoveL Offs(pZero, 50.676,21.09, 0.4), v2000, z0, tNozzle, \Wobj := wobjPlatform;
		MoveL Offs(pZero, 51.878,20.901, 0.4), v2000, z0, tNozzle, \Wobj := wobjPlatform;
		MoveL Offs(pZero, 53.083,20.73, 0.4), v2000, z0, tNozzle, \Wobj := wobjPlatform;
		MoveL Offs(pZero, 54.29,20.577, 0.4), v2000, z0, tNozzle, \Wobj := wobjPlatform;
		MoveL Offs(pZero, 55.499,20.442, 0.4), v2000, z0, tNozzle, \Wobj := wobjPlatform;
		MoveL Offs(pZero, 56.71,20.325, 0.4), v2000, z0, tNozzle, \Wobj := wobjPlatform;
		MoveL Offs(pZero, 57.922,20.225, 0.4), v2000, z0, tNozzle, \Wobj := wobjPlatform;
		MoveL Offs(pZero, 59.136,20.144, 0.4), v2000, z0, tNozzle, \Wobj := wobjPlatform;
		MoveL Offs(pZero, 60.351,20.081, 0.4), v2000, z0, tNozzle, \Wobj := wobjPlatform;
		MoveL Offs(pZero, 61.567,20.036, 0.4), v2000, z0, tNozzle, \Wobj := wobjPlatform;
		MoveL Offs(pZero, 62.783,20.009, 0.4), v2000, z0, tNozzle, \Wobj := wobjPlatform;
		MoveL Offs(pZero, 63.977,20.0, 0.4), v2000, z0, tNozzle, \Wobj := wobjPlatform;
		MoveL Offs(pZero, 92.5,20.0, 0.4), v2000, z0, tNozzle, \Wobj := wobjPlatform;
		MoveL Offs(pZero, 121.023,20.0, 0.4), v2000, z0, tNozzle, \Wobj := wobjPlatform;
		MoveL Offs(pZero, 122.217,20.009, 0.4), v2000, z0, tNozzle, \Wobj := wobjPlatform;
		MoveL Offs(pZero, 123.433,20.036, 0.4), v2000, z0, tNozzle, \Wobj := wobjPlatform;
		MoveL Offs(pZero, 124.649,20.081, 0.4), v2000, z0, tNozzle, \Wobj := wobjPlatform;
		MoveL Offs(pZero, 125.864,20.144, 0.4), v2000, z0, tNozzle, \Wobj := wobjPlatform;
		MoveL Offs(pZero, 127.078,20.225, 0.4), v2000, z0, tNozzle, \Wobj := wobjPlatform;
		MoveL Offs(pZero, 128.29,20.325, 0.4), v2000, z0, tNozzle, \Wobj := wobjPlatform;
		MoveL Offs(pZero, 129.501,20.442, 0.4), v2000, z0, tNozzle, \Wobj := wobjPlatform;
		MoveL Offs(pZero, 130.71,20.577, 0.4), v2000, z0, tNozzle, \Wobj := wobjPlatform;
		MoveL Offs(pZero, 131.917,20.73, 0.4), v2000, z0, tNozzle, \Wobj := wobjPlatform;
		MoveL Offs(pZero, 133.122,20.901, 0.4), v2000, z0, tNozzle, \Wobj := wobjPlatform;
		MoveL Offs(pZero, 134.324,21.09, 0.4), v2000, z0, tNozzle, \Wobj := wobjPlatform;
		MoveL Offs(pZero, 135.523,21.296, 0.4), v2000, z0, tNozzle, \Wobj := wobjPlatform;
		MoveL Offs(pZero, 136.718,21.521, 0.4), v2000, z0, tNozzle, \Wobj := wobjPlatform;
		MoveL Offs(pZero, 137.911,21.763, 0.4), v2000, z0, tNozzle, \Wobj := wobjPlatform;
		MoveL Offs(pZero, 139.099,22.022, 0.4), v2000, z0, tNozzle, \Wobj := wobjPlatform;
		MoveL Offs(pZero, 140.284,22.3, 0.4), v2000, z0, tNozzle, \Wobj := wobjPlatform;
		MoveL Offs(pZero, 141.464,22.595, 0.4), v2000, z0, tNozzle, \Wobj := wobjPlatform;
		MoveL Offs(pZero, 142.64,22.907, 0.4), v2000, z0, tNozzle, \Wobj := wobjPlatform;
		MoveL Offs(pZero, 142.971,23.0, 0.4), v2000, z0, tNozzle, \Wobj := wobjPlatform;
		MoveL Offs(pZero, 169.0,23.0, 0.4), v2000, z0, tNozzle, \Wobj := wobjPlatform;
		MoveL Offs(pZero, 169.0,19.5, 0.4), v2000, z0, tNozzle, \Wobj := wobjPlatform;
		MoveL Offs(pZero, 169.0,16.0, 0.4), v2000, z0, tNozzle, \Wobj := wobjPlatform;
		MoveL Offs(pZero, 142.971,16.0, 0.4), v2000, z0, tNozzle, \Wobj := wobjPlatform;
		MoveL Offs(pZero, 142.64,16.093, 0.4), v2000, z0, tNozzle, \Wobj := wobjPlatform;
		MoveL Offs(pZero, 141.464,16.405, 0.4), v2000, z0, tNozzle, \Wobj := wobjPlatform;
		MoveL Offs(pZero, 140.284,16.7, 0.4), v2000, z0, tNozzle, \Wobj := wobjPlatform;
		MoveL Offs(pZero, 139.099,16.978, 0.4), v2000, z0, tNozzle, \Wobj := wobjPlatform;
		MoveL Offs(pZero, 137.911,17.237, 0.4), v2000, z0, tNozzle, \Wobj := wobjPlatform;
		MoveL Offs(pZero, 136.718,17.479, 0.4), v2000, z0, tNozzle, \Wobj := wobjPlatform;
		MoveL Offs(pZero, 135.523,17.704, 0.4), v2000, z0, tNozzle, \Wobj := wobjPlatform;
		MoveL Offs(pZero, 134.324,17.91, 0.4), v2000, z0, tNozzle, \Wobj := wobjPlatform;
		MoveL Offs(pZero, 133.122,18.099, 0.4), v2000, z0, tNozzle, \Wobj := wobjPlatform;
		MoveL Offs(pZero, 131.917,18.27, 0.4), v2000, z0, tNozzle, \Wobj := wobjPlatform;
		MoveL Offs(pZero, 130.71,18.423, 0.4), v2000, z0, tNozzle, \Wobj := wobjPlatform;
		MoveL Offs(pZero, 129.501,18.558, 0.4), v2000, z0, tNozzle, \Wobj := wobjPlatform;
		MoveL Offs(pZero, 128.29,18.675, 0.4), v2000, z0, tNozzle, \Wobj := wobjPlatform;
		MoveL Offs(pZero, 127.078,18.775, 0.4), v2000, z0, tNozzle, \Wobj := wobjPlatform;
		MoveL Offs(pZero, 125.864,18.856, 0.4), v2000, z0, tNozzle, \Wobj := wobjPlatform;
		MoveL Offs(pZero, 124.649,18.919, 0.4), v2000, z0, tNozzle, \Wobj := wobjPlatform;
		MoveL Offs(pZero, 123.433,18.964, 0.4), v2000, z0, tNozzle, \Wobj := wobjPlatform;
		MoveL Offs(pZero, 122.217,18.991, 0.4), v2000, z0, tNozzle, \Wobj := wobjPlatform;
		MoveL Offs(pZero, 121.023,19.0, 0.4), v2000, z0, tNozzle, \Wobj := wobjPlatform;
		MoveL Offs(pZero, 92.5,19.0, 0.4), v2000, z0, tNozzle, \Wobj := wobjPlatform;
		MoveL Offs(pZero, 63.977,19.0, 0.4), v2000, z0, tNozzle, \Wobj := wobjPlatform;
		MoveL Offs(pZero, 62.783,18.991, 0.4), v2000, z0, tNozzle, \Wobj := wobjPlatform;
		MoveL Offs(pZero, 61.567,18.964, 0.4), v2000, z0, tNozzle, \Wobj := wobjPlatform;
		MoveL Offs(pZero, 60.351,18.919, 0.4), v2000, z0, tNozzle, \Wobj := wobjPlatform;
		MoveL Offs(pZero, 59.136,18.856, 0.4), v2000, z0, tNozzle, \Wobj := wobjPlatform;
		MoveL Offs(pZero, 57.922,18.775, 0.4), v2000, z0, tNozzle, \Wobj := wobjPlatform;
		MoveL Offs(pZero, 56.71,18.675, 0.4), v2000, z0, tNozzle, \Wobj := wobjPlatform;
		MoveL Offs(pZero, 55.499,18.558, 0.4), v2000, z0, tNozzle, \Wobj := wobjPlatform;
		MoveL Offs(pZero, 54.29,18.423, 0.4), v2000, z0, tNozzle, \Wobj := wobjPlatform;
		MoveL Offs(pZero, 53.083,18.27, 0.4), v2000, z0, tNozzle, \Wobj := wobjPlatform;
		MoveL Offs(pZero, 51.878,18.099, 0.4), v2000, z0, tNozzle, \Wobj := wobjPlatform;
		MoveL Offs(pZero, 50.676,17.91, 0.4), v2000, z0, tNozzle, \Wobj := wobjPlatform;
		MoveL Offs(pZero, 49.477,17.704, 0.4), v2000, z0, tNozzle, \Wobj := wobjPlatform;
		MoveL Offs(pZero, 48.282,17.479, 0.4), v2000, z0, tNozzle, \Wobj := wobjPlatform;
		MoveL Offs(pZero, 47.089,17.237, 0.4), v2000, z0, tNozzle, \Wobj := wobjPlatform;
		MoveL Offs(pZero, 45.901,16.978, 0.4), v2000, z0, tNozzle, \Wobj := wobjPlatform;
		MoveL Offs(pZero, 44.716,16.7, 0.4), v2000, z0, tNozzle, \Wobj := wobjPlatform;
		MoveL Offs(pZero, 43.536,16.405, 0.4), v2000, z0, tNozzle, \Wobj := wobjPlatform;
		MoveL Offs(pZero, 42.36,16.093, 0.4), v2000, z0, tNozzle, \Wobj := wobjPlatform;
		MoveL Offs(pZero, 42.029,16.0, 0.4), v2000, z0, tNozzle, \Wobj := wobjPlatform;
		MoveL Offs(pZero, 16.0,16.0, 0.4), v2000, z0, tNozzle, \Wobj := wobjPlatform;
		MoveL Offs(pZero, 16.5,16.5, 0.4), v999, z0, tNozzle, \Wobj := wobjPlatform;
		MoveL Offs(pZero, 41.961,16.5, 0.4), v2000, z0, tNozzle, \Wobj := wobjPlatform;
		MoveL Offs(pZero, 43.854,17.0, 0.4), v999, z0, tNozzle, \Wobj := wobjPlatform;
		MoveL Offs(pZero, 16.5,17.0, 0.4), v2000, z0, tNozzle, \Wobj := wobjPlatform;
		MoveL Offs(pZero, 16.5,17.5, 0.4), v999, z0, tNozzle, \Wobj := wobjPlatform;
		MoveL Offs(pZero, 45.95,17.5, 0.4), v2000, z0, tNozzle, \Wobj := wobjPlatform;
		MoveL Offs(pZero, 48.346,18.0, 0.4), v999, z0, tNozzle, \Wobj := wobjPlatform;
		MoveL Offs(pZero, 16.5,18.0, 0.4), v2000, z0, tNozzle, \Wobj := wobjPlatform;
		MoveL Offs(pZero, 16.5,18.5, 0.4), v999, z0, tNozzle, \Wobj := wobjPlatform;
		MoveL Offs(pZero, 51.209,18.5, 0.4), v2000, z0, tNozzle, \Wobj := wobjPlatform;
		MoveL Offs(pZero, 51.209,20.5, 0.4), v999, z0, tNozzle, \Wobj := wobjPlatform;
		MoveL Offs(pZero, 16.5,20.5, 0.4), v2000, z0, tNozzle, \Wobj := wobjPlatform;
		MoveL Offs(pZero, 16.5,20.0, 0.4), v999, z0, tNozzle, \Wobj := wobjPlatform;
		MoveL Offs(pZero, 54.952,20.0, 0.4), v2000, z0, tNozzle, \Wobj := wobjPlatform;
		MoveL Offs(pZero, 54.952,19.0, 0.4), v999, z0, tNozzle, \Wobj := wobjPlatform;
		MoveL Offs(pZero, 16.5,19.0, 0.4), v2000, z0, tNozzle, \Wobj := wobjPlatform;
		MoveL Offs(pZero, 16.5,19.5, 0.4), v999, z0, tNozzle, \Wobj := wobjPlatform;
		MoveL Offs(pZero, 168.5,19.5, 0.4), v2000, z0, tNozzle, \Wobj := wobjPlatform;
		MoveL Offs(pZero, 168.5,19.0, 0.4), v999, z0, tNozzle, \Wobj := wobjPlatform;
		MoveL Offs(pZero, 130.048,19.0, 0.4), v2000, z0, tNozzle, \Wobj := wobjPlatform;
		MoveL Offs(pZero, 130.048,20.0, 0.4), v999, z0, tNozzle, \Wobj := wobjPlatform;
		MoveL Offs(pZero, 168.5,20.0, 0.4), v2000, z0, tNozzle, \Wobj := wobjPlatform;
		MoveL Offs(pZero, 168.5,20.5, 0.4), v999, z0, tNozzle, \Wobj := wobjPlatform;
		MoveL Offs(pZero, 133.791,20.5, 0.4), v2000, z0, tNozzle, \Wobj := wobjPlatform;
		MoveL Offs(pZero, 133.791,18.5, 0.4), v999, z0, tNozzle, \Wobj := wobjPlatform;
		MoveL Offs(pZero, 168.5,18.5, 0.4), v2000, z0, tNozzle, \Wobj := wobjPlatform;
		MoveL Offs(pZero, 168.5,18.0, 0.4), v999, z0, tNozzle, \Wobj := wobjPlatform;
		MoveL Offs(pZero, 136.654,18.0, 0.4), v2000, z0, tNozzle, \Wobj := wobjPlatform;
		MoveL Offs(pZero, 139.05,17.5, 0.4), v999, z0, tNozzle, \Wobj := wobjPlatform;
		MoveL Offs(pZero, 168.5,17.5, 0.4), v2000, z0, tNozzle, \Wobj := wobjPlatform;
		MoveL Offs(pZero, 168.5,17.0, 0.4), v999, z0, tNozzle, \Wobj := wobjPlatform;
		MoveL Offs(pZero, 141.146,17.0, 0.4), v2000, z0, tNozzle, \Wobj := wobjPlatform;
		MoveL Offs(pZero, 143.039,16.5, 0.4), v999, z0, tNozzle, \Wobj := wobjPlatform;
